!!!OTL: Quartett in A für 2 Violinen, Viola und Violoncello, 4. Satz, KV 464/04
!!!system-decoration: [(s1,s2,s3,s4)]
**kern	**kern	**kern	**kern	**dynam	**kern	**kern	**kern	**kern	**dynam	**kern	**kern	**kern	**kern	**dynam	**kern	**kern	**kern	**kern	**dynam
*part4	*part4	*part4	*part4	*part4	*part3	*part3	*part3	*part3	*part3	*part2	*part2	*part2	*part2	*part2	*part1	*part1	*part1	*part1	*part1
*staff16	*staff15	*staff14	*staff13	*	*staff12	*staff11	*staff10	*staff9	*	*staff8	*staff7	*staff6	*staff5	*	*staff4	*staff3	*staff2	*staff1	*
*I"Violoncello	*	*	*	*	*I"Viola	*	*	*	*	*I"Violino II	*	*	*	*	*I"Violino I	*	*	*	*
*clefF4	*	*clefC3	*	*clefG2	*	*clefG2	*
*k[f#c#g#]	*	*k[f#c#g#]	*	*k[f#c#g#]	*	*k[f#c#g#]	*
*M4/4	*	*M4/4	*	*M4/4	*	*M4/4	*
1r	.	1r	.	1r	.	(2ee	.
.	.	.	.	.	.	4dd#	.
.	.	.	.	.	.	4ddn)	.
=2	=2	=2	=2	=2	=2	=2	=2
1r	.	1r	.	4r	.	4cc#y	.
.	.	.	.	(4a	.	4r	.
.	.	.	.	4cc#y	.	4r	.
.	.	.	.	4b	.	(4ee#	.
=3	=3	=3	=3	=3	=3	=3	=3
1r	.	1r	.	4a#	.	4ff#y)	.
.	.	.	.	4f#y	.	(4.ff#y	.
.	.	.	.	4g#y	.	.	.
.	.	.	.	.	.	8ggnL	.
.	.	.	.	4a#y)	.	8een	.
.	.	.	.	.	.	8ff#yJ)	.
=4	=4	=4	=4	=4	=4	=4	=4
4r	.	4r	.	4b	.	4dd	.
(4B	.	(4.b	.	(4.dd	.	4r	.
4c#y	.	.	.	.	.	2r	.
.	.	8cc#yL	.	8eeL	.	.	.
4d)	.	8a	.	8cc#y	.	.	.
.	.	8bJ)	.	8ddJ)	.	.	.
=5	=5	=5	=5	=5	=5	=5	=5
4e	.	4g#y	.	4b	.	(2dd	.
4r	.	4r	.	4r	.	.	.
2r	.	2r	.	2r	.	4cc#y	.
.	.	.	.	.	.	4ccn)	.
=6	=6	=6	=6	=6	=6	=6	=6
1r	.	1r	.	4r	.	4b	.
.	.	.	.	(4g#y	.	4r	.
.	.	.	.	4b	.	4r	.
.	.	.	.	4a	.	(4dd#	.
=7	=7	=7	=7	=7	=7	=7	=7
1r	.	1r	.	4g#y	.	4ee)	.
.	.	.	.	4e	.	(4.ee	.
.	.	.	.	4f#y	.	.	.
.	.	.	.	.	.	8ff#yL	.
.	.	.	.	4g#y)	.	8ddn	.
.	.	.	.	.	.	8eeJ)	.
!!LO:LB
=8	=8	=8	=8	=8	=8	=8	=8
4r	.	4r	.	4a	.	4cc#y	.
(4.C#y	.	(4.E	.	4r	.	4r	.
.	.	.	.	2r	.	2r	.
8DL	.	8F#yL	.	.	.	.	.
8BB	.	8D	.	.	.	.	.
8C#yJ)	.	8EJ)	.	.	.	.	.
=9	=9	=9	=9	=9	=9	=9	=9
4AA	.	4C#y	.	4r	.	4r	.
4r	.	4r	.	(4.e	.	(4.cc#y	.
2r	.	2r	.	.	.	.	.
.	.	.	.	8f#yL	.	8ddL	.
.	.	.	.	8d	.	8b	.
.	.	.	.	8eJ)	.	8cc#yJ)	.
=10	=10	=10	=10	=10	=10	=10	=10
4r	.	4r	.	4c#y	.	4a	.
(4.E	.	(4.c#y	.	4r	.	4r	.
.	.	.	.	2r	.	2r	.
8F#yL	.	8dL	.	.	.	.	.
8D	.	8B	.	.	.	.	.
8EJ)	.	8c#yJ)	.	.	.	.	.
=11	=11	=11	=11	=11	=11	=11	=11
4C#y	.	4A	.	4r	.	4r	.
4r	.	4r	.	(4.cc#y	.	(4.ee	.
2r	.	2r	.	.	.	.	.
.	.	.	.	8ddL	.	8ff#yL	.
.	.	.	.	8b	.	8dd	.
.	.	.	.	8cc#yJ)	.	8eeJ)	.
=12	=12	=12	=12	=12	=12	=12	=12
4r	.	4r	.	4a	.	4cc#y	.
(4.c#y	.	(4.e	.	4r	.	4r	.
.	.	.	.	2r	.	2r	.
8dL	.	8f#yL	.	.	.	.	.
8B	.	8d	.	.	.	.	.
8c#yJ)	.	8eJ)	.	.	.	.	.
=13	=13	=13	=13	=13	=13	=13	=13
4A	.	4c#y	.	4r	.	4r	.
4r	.	4r	.	(4a	.	(4.aa	.
2r	.	2r	.	4b	.	.	.
.	.	.	.	.	.	8bbL	.
.	.	.	.	4cc#y)	.	8gg#y	.
.	.	.	.	.	.	8aaJ)	.
!!LO:LB
=14	=14	=14	=14	=14	=14	=14	=14
1r	.	4r	.	4dd	.	4ff#y	.
.	.	(4f#y	.	(4.dd	.	(4.ff#y	.
.	.	4g#y	.	.	.	.	.
.	.	.	.	8eeL	.	8ggnL	.
.	.	4a#)	.	8cc#y	.	8ee	.
.	.	.	.	8ddJ)	.	8ff#yJ)	.
=15	=15	=15	=15	=15	=15	=15	=15
4r	.	(4b	.	4b	.	4dd	.
(4E	.	4g#y)	.	(4.b	.	(4.dd	.
4G#y	.	[2e	.	.	.	.	.
.	.	.	.	8cc#yL	.	8eeL	.
4A)	.	.	.	8a	.	8cc#y	.
.	.	.	.	8bJ)	.	8ddJ)	.
=16	=16	=16	=16	=16	=16	=16	=16
4E	.	8eL]	.	8g#yL	.	4b	.
.	.	8f#y	.	8a	.	.	.
4r	.	8e	.	8g#y	.	4r	.
.	.	8dJ	.	8f#yJ	.	.	.
2r	.	8c#yL	.	8eL	.	2r	.
.	.	8B	.	8d	.	.	.
.	.	8A	.	8c#y	.	.	.
.	.	8G#yJ	.	8BJ	.	.	.
=17	=17	=17	=17	=17	=17	=17	=17
1r	.	4A	.	4c#y	.	(2ee	.
.	.	4r	.	4r	.	.	.
.	.	2r	.	2r	.	4dd#	.
.	.	.	.	.	.	4ddn)	.
=18	=18	=18	=18	=18	=18	=18	=18
1r	.	(2c#y	.	(2e	.	4cc#y	.
.	.	.	.	.	.	4r	.
.	.	4cn	.	4d#	.	4r	.
.	.	4B)	.	4dn)	.	(4ee#	.
=19	=19	=19	=19	=19	=19	=19	=19
4r	.	4A#	.	4c#y	.	4ff#y)	.
(4FF#y	.	4c#	.	(4a#	.	(4.ff#y	.
4GG#y	.	[2f#y	.	4b	.	.	.
.	.	.	.	.	.	8ggnL	.
4AA#	.	.	.	4cc#y)	.	8een	.
.	.	.	.	.	.	8ff#yJ)	.
!!LO:LB
=20	=20	=20	=20	=20	=20	=20	=20
4BB	.	(8f#yL_	.	(8ddL	.	4dd	.
.	.	8gn	.	8ee	.	.	.
4C#y	.	8e	.	8cc#y	.	4r	.
.	.	8f#yJ	.	8ddJ	.	.	.
4D	.	8dL	.	8bL	.	2r	.
.	.	8e	.	8cc#y	.	.	.
4D#)	.	8c#y	.	8a	.	.	.
.	.	8dJ)	.	8bJ)	.	.	.
=21	=21	=21	=21	=21	=21	=21	=21
4E	.	4B	.	4g#y	.	(2dd	.
4r	.	4r	.	4r	.	.	.
2r	.	2r	.	2r	.	4cc#y	.
.	.	.	.	.	.	4ccn)	.
=22	=22	=22	=22	=22	=22	=22	=22
1r	.	(2B	.	(2d	.	4b	.
.	.	.	.	.	.	4r	.
.	.	4A#	.	4c#y	.	4r	.
.	.	4An)	.	4cn)	.	(4dd#	.
=23	=23	=23	=23	=23	=23	=23	=23
4r	.	4G#y	.	4B	.	4ee)	.
(4EE	.	4B	.	(4g#y	.	(4.ee	.
4FF#y	.	[2e	.	4a	.	.	.
.	.	.	.	.	.	8ff#yL	.
4GG#y	.	.	.	4b)	.	8ddn	.
.	.	.	.	.	.	8eeJ)	.
=24	=24	=24	=24	=24	=24	=24	=24
4AA	.	(8eL_	.	(8cc#yL	.	4cc#y	.
.	.	8f#y	.	8dd	.	.	.
4BB	.	8d	.	8b	.	4r	.
.	.	8eJ	.	8cc#yJ	.	.	.
2C#y)	.	8c#yL	.	8aL	.	2r	.
.	.	8d	.	8b	.	.	.
.	.	8B	.	8g#y	.	.	.
.	.	8c#yJ)	.	8aJ)	.	.	.
=25	=25	=25	=25	=25	=25	=25	=25
(4D	.	(4A	.	(4f#y	.	4r	.
4BB	.	2B	.	4g#y)	.	(4.dd	.
4C#y	.	.	.	(4e	.	.	.
.	.	.	.	.	.	8eeL	.
4D)	.	4A)	.	4a)	.	8cc#y	.
.	.	.	.	.	.	8ddJ)	.
=26	=26	=26	=26	=26	=26	=26	=26
(2E	.	4e	.	(8aL_	.	(4b	.
.	.	.	.	8b	.	.	.
.	.	4r	.	8g#y	.	4.ee	.
.	.	.	.	8aJ)	.	.	.
2B)	.	2r	.	(4f#y	.	.	.
.	.	.	.	.	.	8ff#yL	.
.	.	.	.	[4b	.	8dd	.
.	.	.	.	.	.	8eeJ)	.
=27	=27	=27	=27	=27	=27	=27	=27
2F#y	.	1r	.	8bL]	.	(4cc#y	.
.	.	.	.	8cc#y	.	.	.
.	.	.	.	8a	.	4.ff#y	.
.	.	.	.	8bJ)	.	.	.
(4BB	.	.	.	(4.gn	.	.	.
.	.	.	.	.	.	8ggn	.
4C#y	.	.	.	.	.	4ee)	.
.	.	.	.	8a)	.	.	.
=28	=28	=28	=28	=28	=28	=28	=28
4D	.	2r	.	(4.f#y	.	8eeL]	.
.	.	.	.	.	.	(8ff#yJ	.
4BB	.	.	.	.	.	4.dd	.
.	.	.	.	8g#)	.	.	.
4C#y	.	4r	.	[2e	.	.	.
.	.	.	.	.	.	8eeL	.
4AA)	.	[(4A	.	.	.	8cc#y	.
.	.	.	.	.	.	8ddJ)	.
=29	=29	=29	=29	=29	=29	=29	=29
4EE	.	8AL]	.	4e]	.	4b	.
.	.	8B	.	.	.	.	.
(4.E	.	8G#y	.	4r	.	4r	.
.	.	8AJ)	.	.	.	.	.
.	.	(4F#y	.	2r	.	2r	.
8F#yL	.	.	.	.	.	.	.
8D	.	[4B	.	.	.	.	.
8EJ)	.	.	.	.	.	.	.
=30	=30	=30	=30	=30	=30	=30	=30
(4C#y	.	8BL]	.	1r	.	1r	.
.	.	8c#y	.	.	.	.	.
4.F#y	.	8A	.	.	.	.	.
.	.	8BJ)	.	.	.	.	.
.	.	(4G#y	.	.	.	.	.
8G#yL	.	.	.	.	.	.	.
8E	.	[4c#y	.	.	.	.	.
8F#yJ)	.	.	.	.	.	.	.
=31	=31	=31	=31	=31	=31	=31	=31
(4.D	.	8c#yL]	.	2r	.	1r	.
.	.	8dJ	.	.	.	.	.
.	.	4.B)	.	.	.	.	.
8E)	.	.	.	.	.	.	.
(4.C#y	.	.	.	4r	.	.	.
.	.	(8c#y	.	.	.	.	.
.	.	4A)	.	[(4ee	.	.	.
8D)	.	.	.	.	.	.	.
!!LO:LB
=32	=32	=32	=32	=32	=32	=32	=32
2BB	.	(4A_	.	8eeL]	.	4r	.
.	.	.	.	8ff#y	.	.	.
.	.	4G#y)	.	8dd	.	(4.bb	.
.	.	.	.	8eeJ)	.	.	.
4C#y	.	4e	.	(4cc#y	.	.	.
.	.	.	.	.	.	8ccc#yL	.
4D#	.	[4B	.	[4ff#y	.	8aa	.
.	.	.	.	.	.	8bbJ)	.
=33	=33	=33	=33	=33	=33	=33	=33
4E	.	4B]	.	8ff#yL]	.	(4gg#y	.
.	.	.	.	8gg#y	.	.	.
4AA#	.	(2f#y	.	8ee	.	4.ccc#y	.
.	.	.	.	8ff#yJ)	.	.	.
2BB	.	.	.	(4.dd#	.	.	.
.	.	.	.	.	.	8ddd#	.
.	.	4g#y	.	.	.	4bb)	.
.	.	.	.	8ee)	.	.	.
=34	=34	=34	=34	=34	=34	=34	=34
2BB	.	4e#	.	(4.cc#y	.	8bbL]	.
.	.	.	.	.	.	(8ccc#yJ	.
.	.	4f#y	.	.	.	4.aa)	.
.	.	.	.	8dd#)	.	.	.
2BB	.	4d#	.	(4.b	.	.	.
.	.	.	.	.	.	(8bb	.
.	.	4en)	.	.	.	4gg#y)	.
.	.	.	.	8cc#y)	.	.	.
=35	=35	=35	=35	=35	=35	=35	=35
2BB	.	(4c#y	.	(4.a	.	8gg#yL]	.
.	.	.	.	.	.	(8aaJ	.
.	.	4d#	.	.	.	4.ff#y	.
.	.	.	.	8b)	.	.	.
2BB	.	4e	.	(4g#y	.	.	.
.	.	.	.	.	.	8gg#yL	.
.	.	4c#y)	.	4a#)	.	8ee	.
.	.	.	.	.	.	8ff#yJ)	.
=36	=36	=36	=36	=36	=36	=36	=36
4BB	.	4B	.	4b	.	4dd#	.
4r	.	4r	.	4r	.	(4.aa	.
2Cn	.	2r	.	4r	.	.	.
.	.	.	.	.	.	8ggnL	.
.	.	.	.	[(4a	.	8ff#y	.
.	.	.	.	.	.	8eeJ	.
=37	=37	=37	=37	=37	=37	=37	=37
2BB	.	2r	.	8aL]	.	4dd#)	.
.	.	.	.	8gn	.	.	.
.	.	.	.	8f#y	.	(4.aa	.
.	.	.	.	8eJ	.	.	.
2C	.	4r	.	4d#)	.	.	.
.	.	.	.	.	.	8ggnL	.
.	.	[(4a	.	4r	.	8ff#y	.
.	.	.	.	.	.	8eeJ	.
!!LO:LB
=38	=38	=38	=38	=38	=38	=38	=38
4BB	.	8aL]	.	4r	.	4dd#)	.
.	.	8gn	.	.	.	.	.
4r	.	8f#y	.	2ff#y	.	(4.aa	.
.	.	8eJ)	.	.	.	.	.
4B	.	4d#	.	.	.	.	.
.	.	.	.	.	.	8gg#L	.
4cn	.	4e	.	4ee	.	8aa	.
.	.	.	.	.	.	8aa#J	.
=39	=39	=39	=39	=39	=39	=39	=39
4B	.	4f#y	.	4dd#	.	4bb)	.
(4.BB	.	(4.B	.	(4.B	.	4r	.
.	.	.	.	.	.	2r	.
8AA#L	.	8A#L	.	8A#L	.	.	.
8BB	.	8B	.	8B	.	.	.
8AAnJ)	.	8AnJ)	.	8AnJ)	.	.	.
=40	=40	=40	=40	=40	=40	=40	=40
4GG	.	4G	.	4G	.	(2b	.
4r	.	4r	.	4r	.	.	.
2r	.	2r	.	2r	.	4a#	.
.	.	.	.	.	.	4an)	.
=41	=41	=41	=41	=41	=41	=41	=41
8EEL	.	(2e	.	1r	.	4g#y	.
8EE	.	.	.	.	.	.	.
8EE	.	.	.	.	.	4r	.
8EEJ	.	.	.	.	.	.	.
8EEL	.	4d#	.	.	.	2r	.
8EE	.	.	.	.	.	.	.
8EE	.	4dn)	.	.	.	.	.
8EEJ	.	.	.	.	.	.	.
=42	=42	=42	=42	=42	=42	=42	=42
8EEL	.	(2c#y	.	(2ee	.	1r	.
8EE	.	.	.	.	.	.	.
8EE	.	.	.	.	.	.	.
8EEJ	.	.	.	.	.	.	.
8EEL	.	2B)	.	4dd#	.	.	.
8EE	.	.	.	.	.	.	.
8EE	.	.	.	4ddn)	.	.	.
8EEJ	.	.	.	.	.	.	.
=43	=43	=43	=43	=43	=43	=43	=43
8EEL	.	(4A	.	2cc#y	.	(2aa	.
8EE	.	.	.	.	.	.	.
8EE	.	4c#y)	.	.	.	.	.
8EEJ	.	.	.	.	.	.	.
8EEL	.	[2e	.	[2b	.	4gg#y	.
8EE	.	.	.	.	.	.	.
8EE	.	.	.	.	.	4ggn)	.
8EEJ	.	.	.	.	.	.	.
!!LO:LB
=44	=44	=44	=44	=44	=44	=44	=44
8EEL	.	(4e_	.	1b]	.	4ff#y	.
8EE	.	.	.	.	.	.	.
8EE	.	8d#L	.	.	.	(4.bb	.
8EEJ	.	8c#yJ	.	.	.	.	.
8EEL	.	2d#y)	.	.	.	.	.
8EE	.	.	.	.	.	8ccc#yL	.
8EE	.	.	.	.	.	8aa	.
8EEJ	.	.	.	.	.	8bbJ)	.
=45	=45	=45	=45	=45	=45	=45	=45
8EEL	.	4e	.	(2b	.	4gg#	.
8E	.	.	.	.	.	.	.
8E	.	4r	.	.	.	4r	.
8EJ	.	.	.	.	.	.	.
8EL	.	2r	.	4a#	.	2r	.
8E	.	.	.	.	.	.	.
8E	.	.	.	4an)	.	.	.
8EJ	.	.	.	.	.	.	.
=46	=46	=46	=46	=46	=46	=46	=46
8EL	.	(>2e	.	4g#y	.	1r	.
8E	.	.	.	.	.	.	.
8E	.	.	.	4r	.	.	.
8EJ	.	.	.	.	.	.	.
8EL	.	4d#	.	2r	.	.	.
8E	.	.	.	.	.	.	.
8E	.	4dn	.	.	.	.	.
8EJ	.	.	.	.	.	.	.
=47	=47	=47	=47	=47	=47	=47	=47
8EL	.	4c#y	.	(2ee	.	1r	.
8E	.	.	.	.	.	.	.
8E	.	4cn	.	.	.	.	.
8EJ	.	.	.	.	.	.	.
8EL	.	4B	.	4dd#	.	.	.
8E	.	.	.	.	.	.	.
8E	.	4G#y)	.	4ddn)	.	.	.
8EJ	.	.	.	.	.	.	.
=48	=48	=48	=48	=48	=48	=48	=48
8EL	.	(4A	.	(4cc#y	.	(2aa	.
8E	.	.	.	.	.	.	.
8E	.	4d#	.	4ccn	.	.	.
8EJ	.	.	.	.	.	.	.
8EL	.	4e	.	4b	.	4gg#y	.
8E	.	.	.	.	.	.	.
8E	.	4A#)	.	4ee)	.	4ggn)	.
8EJ	.	.	.	.	.	.	.
=49	=49	=49	=49	=49	=49	=49	=49
8EL	.	(4B	.	(4ee_	.	4ff#y	.
8E	.	.	.	.	.	.	.
8E	.	4An	.	8dd#L	.	(4.bb	.
8EJ	.	.	.	8cc#J	.	.	.
8EL	.	4G#y	.	2dd#y)	.	.	.
8E	.	.	.	.	.	8ccc#yL	.
8E	.	4F#y)	.	.	.	8aa	.
8EJ	.	.	.	.	.	8bbJ)	.
=50	=50	=50	=50	=50	=50	=50	=50
4E	.	4E	.	8eeL	.	4gg#	.
.	.	.	.	8ee	.	.	.
4r	.	(4.cc#y	.	8ee	.	(4.aa	.
.	.	.	.	8eeJ	.	.	.
2r	.	.	.	8eeL	.	.	.
.	.	8ddnL	.	8ee	.	8bbL	.
.	.	8b	.	8ee	.	8gg#y	.
.	.	8cc#yJ)	.	8eeJ	.	8aaJ)	.
=51	=51	=51	=51	=51	=51	=51	=51
1r	.	4a	.	8eeL	.	4ff#y	.
.	.	.	.	8ee	.	.	.
.	.	(4.b	.	8ee	.	(4.gg#y	.
.	.	.	.	8eeJ	.	.	.
.	.	.	.	8eeL	.	.	.
.	.	8cc#yL	.	8ee	.	8aaL	.
.	.	8a	.	8ee	.	8ff#y	.
.	.	8bJ)	.	8eeJ	.	8gg#yJ)	.
=52	=52	=52	=52	=52	=52	=52	=52
1r	.	4g#y	.	8eeL	.	4ee	.
.	.	.	.	8ee	.	.	.
.	.	(4.a	.	8ee	.	(4.ccc#y	.
.	.	.	.	8eeJ	.	.	.
.	.	.	.	8eeL	.	.	.
.	.	8bL	.	8ee	.	8dddnL	.
.	.	8g#y	.	8ee	.	8bb	.
.	.	8aJ)	.	8eeJ	.	8ccc#yJ)	.
=53	=53	=53	=53	=53	=53	=53	=53
1r	.	4f#y	.	8eeL	.	4aa	.
.	.	.	.	8ee	.	.	.
.	.	(4.g#y	.	8ee	.	(4.bb	.
.	.	.	.	8eeJ	.	.	.
.	.	.	.	8eeL	.	.	.
.	.	8aL	.	8ee	.	8ccc#yL	.
.	.	8f#y	.	8ee	.	8aa	.
.	.	8g#yJ)	.	8eeJ	.	8bbJ)	.
=54	=54	=54	=54	=54	=54	=54	=54
1r	.	4e	.	(8eeL	cresc.	4gg#y	cresc.
.	.	.	.	8b	.	.	.
.	.	4r	.	8gg#y	.	(4bb	.
.	.	.	.	8bJ	.	.	.
.	.	2r	.	8ff#yL	.	4aa	.
.	.	.	.	8b	.	.	.
.	.	.	.	8ee	.	4gg#y)	.
.	.	.	.	8bJ)	.	.	.
=55	=55	=55	=55	=55	=55	=55	=55
4r	.	8r	.	4dd#	.	4ff#y	.
.	.	8bL	.	.	.	.	.
(4.A	.	8b	.	(2dd#y	.	(2ff#y	.
.	.	8bJ	.	.	.	.	.
.	.	8bL	.	.	.	.	.
8BL	.	8b	.	.	.	.	.
8G#y	.	8b	.	4ee)	.	4gg#y)	.
8AJ)	.	8bJ	.	.	.	.	.
!!LO:LB
=56	=56	=56	=56	=56	=56	=56	=56
4F#y	.	8bL	.	4ff#y	.	4aa	.
.	.	8B	.	.	.	.	.
(4.A	.	8B	.	(2d#	.	(2f#y	.
.	.	8BJ	.	.	.	.	.
.	.	8BL	.	.	.	.	.
8BL	.	8B	.	.	.	.	.
8G#y	.	8B	.	4e)	.	4g#y)	.
8AJ)	.	8BJ	.	.	.	.	.
=57	=57	=57	=57	=57	=57	=57	=57
4F#y	.	8BL	.	4f#y	.	4a	.
.	.	8b	.	.	.	.	.
(4.A	.	8b	.	(2dd#	.	(2ff#y	.
.	.	8bJ	.	.	.	.	.
.	.	8bL	.	.	.	.	.
8BL	.	8b	.	.	.	.	.
8G#y	.	8b	.	4ee)	.	4gg#y)	.
8AJ)	.	8bJ	.	.	.	.	.
=58	=58	=58	=58	=58	=58	=58	=58
(2F#y	.	(2.b	.	(2dd#	.	(4bb	.
.	.	.	.	.	.	2aa	.
2G#y)	.	.	.	2ee#)	.	.	.
.	.	4ddn)	.	.	.	4gg#y)	.
=59	=59	=59	=59	=59	=59	=59	=59
4A	.	4cc#y	.	(8ee#yL_	.	(8gg#yL_	decrescendo
.	.	.	.	8ff#yJ)	.	8ff#y	.
4r	.	4r	.	4r	.	8ccc#y	.
.	.	.	.	.	.	8aaJ	.
2r	.	2r	.	2r	.	8gg#yL	.
.	.	.	.	.	.	8ff#y	.
.	.	.	.	.	.	8aa	.
.	.	.	.	.	.	8ff#yJ)	.
=60	=60	=60	=60	=60	=60	=60	=60
1r	.	1r	.	1r	.	(8ddnL	.
.	.	.	.	.	.	8cc#y	.
.	.	.	.	.	.	8ff#y	.
.	.	.	.	.	.	8cc#yJ	.
.	.	.	.	.	.	8bL	.
.	.	.	.	.	.	8a	.
.	.	.	.	.	.	8cc#y	.
.	.	.	.	.	.	8aJ)	.
=61	=61	=61	=61	=61	=61	=61	=61
1r	.	1r	.	1r	.	(8g#yL	.
.	.	.	.	.	.	8f#y	.
.	.	.	.	.	.	8e#	.
.	.	.	.	.	.	8f#yJ	.
.	.	.	.	.	.	8g#yL	.
.	.	.	.	.	.	8f#y	.
.	.	.	.	.	.	8a	.
.	.	.	.	.	.	8f#yJ)	.
!!LO:LB
=62	=62	=62	=62	=62	=62	=62	=62
(2BB	.	(2A	.	(2d#	.	(2b	.
2C#y)	.	2G#y)	.	2e)	.	2en)	.
=63	=63	=63	=63	=63	=63	=63	=63
(2AA	.	1F#y	.	(2e_	.	(2cc#y	.
2BB)	.	.	.	2A)	.	2d#)	.
=64	=64	=64	=64	=64	=64	=64	=64
4GG#y	.	4E	.	8r	.	8r	.
.	.	.	.	(8bL	.	(8bL	.
4r	.	4r	.	8gg#y)	.	8bb)	.
.	.	.	.	8gg#yJ	.	8bbJ	.
4c#y	.	4g#y	.	8r	.	8r	.
.	.	.	.	(8cc#yL	.	(8eeL	.
4r	.	4r	.	8ee)	.	8gg#y)	.
.	.	.	.	8eeJ	.	8gg#yJ	.
=65	=65	=65	=65	=65	=65	=65	=65
4A	.	4f#y	.	8r	.	8r	.
.	.	.	.	(8cc#yL	.	(8eeL	.
4r	.	4r	.	8ee)	.	8ccc#y)	.
.	.	.	.	8eeJ	.	8ccc#yJ	.
4B	.	4f#y	.	8r	.	8r	.
.	.	.	.	(8AL	.	(8f#yL	.
4r	.	4r	.	8a)	.	8dd#)	.
.	.	.	.	8aJ	.	8dd#yJ	.
=66	=66	=66	=66	=66	=66	=66	=66
8EL	.	4e	.	4g#y	.	4ee	.
8E	.	.	.	.	.	.	.
8E	.	4r	.	4r	.	4r	.
8EJ	.	.	.	.	.	.	.
8EL	.	2r	.	2r	.	4r	.
8E	.	.	.	.	.	.	.
8E	.	.	.	.	.	(8g#yL	.
8EJ	.	.	.	.	.	8bJ	.
=67	=67	=67	=67	=67	=67	=67	=67
8EL	.	2r	.	2r	.	8eeL	.
8E	.	.	.	.	.	8b	.
8E	.	.	.	.	.	8g#y	.
8EJ	.	.	.	.	.	8bJ	.
8EL	.	4r	.	4r	.	4ee)	.
8E	.	.	.	.	.	.	.
8E	.	4g#y	.	4b	.	4bb	.
8EJ	.	.	.	.	.	.	.
=68	=68	=68	=68	=68	=68	=68	=68
8EL	.	(2f#y	.	(2dd#	.	(2aa	.
8E	.	.	.	.	.	.	.
8E	.	.	.	.	.	.	.
8EJ	.	.	.	.	.	.	.
8EL	.	4e)	.	4ee)	.	4gg#y)	.
8E	.	.	.	.	.	.	.
8E	.	4r	.	4r	.	(8g#yL	.
8EJ	.	.	.	.	.	8bJ	.
!!LO:LB
=69	=69	=69	=69	=69	=69	=69	=69
8EL	.	2r	.	2r	.	8eeL	.
8E	.	.	.	.	.	8b	.
8E	.	.	.	.	.	8g#y	.
8EJ	.	.	.	.	.	8bJ	.
8EL	.	4r	.	4r	.	4ee)	.
8E	.	.	.	.	.	.	.
8E	.	4g#y	.	4b	.	4bb	.
8EJ	.	.	.	.	.	.	.
=70	=70	=70	=70	=70	=70	=70	=70
8EL	.	(2f#y	.	(2a	.	(2dd#	.
8E	.	.	.	.	.	.	.
8E	.	.	.	.	.	.	.
8EJ	.	.	.	.	.	.	.
8EL	.	4e)	.	4g#y)	.	4ee)	.
8EE	.	.	.	.	.	.	.
8EE	.	4r	.	(8G#yL	.	4r	.
8EEJ	.	.	.	8BJ	.	.	.
=71	=71	=71	=71	=71	=71	=71	=71
8EEL	.	2r	.	8eL	.	4r	.
8EE	.	.	.	8B	.	.	.
8EE	.	.	.	8G#y	.	4bb	.
8EEJ	.	.	.	8BJ	.	.	.
8EEL	.	4r	.	4e)	.	4bb	.
8EE	.	.	.	.	.	.	.
8EE	.	4g#y	.	4b	.	4bb	.
8EEJ	.	.	.	.	.	.	.
=72	=72	=72	=72	=72	=72	=72	=72
8EEL	.	(2f#y	.	(2a	.	(4.bb	.
8EE	.	.	.	.	.	.	.
8EE	.	.	.	.	.	.	.
8EEJ	.	.	.	.	.	16ccc#yL	.
.	.	.	.	.	.	16bbJ	.
8EEL	.	4e)	.	4g#y)	.	4eee)	.
8EE	.	.	.	.	.	.	.
8EE	.	4r	.	(8G#yL	.	4r	.
8EEJ	.	.	.	8BJ	.	.	.
=73	=73	=73	=73	=73	=73	=73	=73
8EEL	.	2r	.	8eL	.	4r	.
8EE	.	.	.	8B	.	.	.
8EE	.	.	.	8G#y	.	4bb	.
8EEJ	.	.	.	8BJ	.	.	.
8EEL	.	4r	.	4e)	.	4bb	.
8EE	.	.	.	.	.	.	.
8EE	.	4G#y	.	4b	.	4bb	.
8EEJ	.	.	.	.	.	.	.
=74	=74	=74	=74	=74	=74	=74	=74
8EEL	.	(2A	.	(2d#	.	(4.bb	.
8EE	.	.	.	.	.	.	.
8EE	.	.	.	.	.	.	.
8EEJ	.	.	.	.	.	16aaL	.
.	.	.	.	.	.	16ff#yJ	.
8EEL	.	4G#y)	.	4e)	.	4ee)	.
8EE	.	.	.	.	.	.	.
8EE	.	4B	.	4g#y	.	4b	.
8EEJ	.	.	.	.	.	.	.
=75	=75	=75	=75	=75	=75	=75	=75
8EEL	.	(2A	.	(2d#	.	(4.b	.
8EE	.	.	.	.	.	.	.
8EE	.	.	.	.	.	.	.
8EEJ	.	.	.	.	.	16aL	.
.	.	.	.	.	.	16f#yJ	.
8EEL	.	4G#y)	.	4e)	.	4e)	.
8EE	.	.	.	.	.	.	.
8EE	.	4B	.	4e	.	4g#y	.
8EEJ	.	.	.	.	.	.	.
=76	=76	=76	=76	=76	=76	=76	=76
8EEL	.	(2D#	.	(2A	.	(4.b	.
8EE	.	.	.	.	.	.	.
8EE	.	.	.	.	.	.	.
8EEJ	.	.	.	.	.	16aL	.
.	.	.	.	.	.	16f#yJ	.
4EE	.	4E)	.	4G#y)	.	4e)	.
4r	.	4r	.	4g#y	.	4b	.
=77	=77	=77	=77	=77	=77	=77	=77
4r	.	4r	.	4b	.	4ddn	.
4G#y	.	4B	.	4r	.	4r	.
4B	.	4dn	.	4r	.	4r	.
4r	.	4r	.	4gg#y	.	4bb	.
*clefC4	*	*	*	*	*	*	*
=78	=78	=78	=78	=78	=78	=78	=78
(2e	.	(2g#y	.	4bb	.	4ddd	.
.	.	.	.	4r	.	4r	.
4f#y	.	4a	.	2r	.	2r	.
4gn)	.	4a#)	.	.	.	.	.
=79	=79	=79	=79	=79	=79	=79	=79
4g#	.	4b	.	(2dd	.	(2ff#y	.
4r	.	4r	.	.	.	.	.
2r	.	2r	.	4cc#y	.	4ee	.
.	.	.	.	4ccn)	.	4dd#)	.
*clefF4	*	*	*	*	*	*	*
=80	=80	=80	=80	=80	=80	=80	=80
(2E	.	(2e	.	4b	.	4ddn	.
.	.	.	.	4r	.	4r	.
4F#y	.	4d#	.	2r	.	2r	.
4G#y)	.	4dn)	.	.	.	.	.
=81	=81	=81	=81	=81	=81	=81	=81
4A	.	4c#y	.	1r	.	(2ee	.
4r	.	4r	.	.	.	.	.
2r	.	2r	.	.	.	4dd#	.
.	.	.	.	.	.	4ddn)	.
!!LO:LB
=82:|!	=82:|!	=82:|!	=82:|!	=82:|!	=82:|!	=82:|!	=82:|!
(2A	.	(2A	.	(2.e	.	(4cc#y	.
.	.	.	.	.	.	4ccn)	.
4G#y	.	2B)	.	.	.	(4.b	.
4Gn)	.	.	.	4e#)	.	.	.
.	.	.	.	.	.	16cc#L	.
.	.	.	.	.	.	16bJ)	.
=83	=83	=83	=83	=83	=83	=83	=83
8F#yL	.	4c#y	.	4f#y	.	4a#	.
8F#y	.	.	.	.	.	.	.
8D	.	4f#y	.	4b	.	4dd	.
8BBJ	.	.	.	.	.	.	.
8F#yL	.	4f#y	.	4a#	.	4cc#y	.
8F#y	.	.	.	.	.	.	.
8D	.	4f#y	.	4bb	.	4ddd	.
8BBJ	.	.	.	.	.	.	.
=84	=84	=84	=84	=84	=84	=84	=84
4F#y	.	4f#y	.	4aa#	.	4ccc#y	.
4r	.	4r	.	4r	.	4r	.
2r;	.	2r;	.	2r;	.	2r;	.
=85	=85	=85	=85	=85	=85	=85	=85
8GGnL	.	1r	.	1r	.	1r	.
8GG	.	.	.	.	.	.	.
8GG	.	.	.	.	.	.	.
8GGJ	.	.	.	.	.	.	.
8GGL	.	.	.	.	.	.	.
8GG	.	.	.	.	.	.	.
8GG	.	.	.	.	.	.	.
8GGJ	.	.	.	.	.	.	.
=86	=86	=86	=86	=86	=86	=86	=86
8GGL	.	(2Gn	.	1r	.	1r	.
8GG	.	.	.	.	.	.	.
8GG	.	.	.	.	.	.	.
8GGJ	.	.	.	.	.	.	.
8GGL	.	4F#y	.	.	.	.	.
8GG	.	.	.	.	.	.	.
8GG	.	4Fn)	.	.	.	.	.
8GGJ	.	.	.	.	.	.	.
=87	=87	=87	=87	=87	=87	=87	=87
8GGL	.	(2E	.	(2gn	.	1r	.
8GG	.	.	.	.	.	.	.
8GG	.	.	.	.	.	.	.
8GGJ	.	.	.	.	.	.	.
8GGL	.	2D)	.	4f#y	.	.	.
8GG	.	.	.	.	.	.	.
8GG	.	.	.	4fn)	.	.	.
8GGJ	.	.	.	.	.	.	.
!!LO:LB
=88	=88	=88	=88	=88	=88	=88	=88
8GGL	.	(4Cn	.	(2e	.	(2ccn	.
8GG	.	.	.	.	.	.	.
8GG	.	4E)	.	.	.	.	.
8GGJ	.	.	.	.	.	.	.
8GGL	.	[2G	.	2d)	.	4b	.
8GG	.	.	.	.	.	.	.
8GG	.	.	.	.	.	4b-)	.
8GGJ	.	.	.	.	.	.	.
=89	=89	=89	=89	=89	=89	=89	=89
8GGL	.	(4G_	.	1d]	.	(4a	.
8GG	.	.	.	.	.	.	.
8GG	.	8F#L	.	.	.	(4.dd	.
8GGJ	.	8EJ	.	.	.	.	.
8GGL	.	2F#y)	.	.	.	.	.
8GG	.	.	.	.	.	8eeL	.
8GG	.	.	.	.	.	8ccn	.
8GGJ	.	.	.	.	.	8ddJ))	.
=90	=90	=90	=90	=90	=90	=90	=90
8GGL	.	4G	.	(2d	.	4bn	.
8Gn	.	.	.	.	.	.	.
8G	.	4r	.	.	.	4r	.
8GJ	.	.	.	.	.	.	.
8GL	.	2r	.	4c	.	2r	.
8G	.	.	.	.	.	.	.
8G	.	.	.	4cn)	.	.	.
8GJ	.	.	.	.	.	.	.
=91	=91	=91	=91	=91	=91	=91	=91
8GL	.	(2gn	.	4B	.	1r	.
8G	.	.	.	.	.	.	.
8G	.	.	.	4r	.	.	.
8GJ	.	.	.	.	.	.	.
8GL	.	4f#y	.	2r	.	.	.
8G	.	.	.	.	.	.	.
8G	.	4fn)	.	.	.	.	.
8GJ	.	.	.	.	.	.	.
=92	=92	=92	=92	=92	=92	=92	=92
8GL	.	(4e	.	(2ggn	.	1r	.
8G	.	.	.	.	.	.	.
8G	.	4e-	.	.	.	.	.
8GJ	.	.	.	.	.	.	.
8GL	.	4d	.	4ff#y	.	.	.
8G	.	.	.	.	.	.	.
8G	.	4B)	.	4ffn)	.	.	.
8GJ	.	.	.	.	.	.	.
=93	=93	=93	=93	=93	=93	=93	=93
8GL	.	(4cn	.	(4ee	.	(2cccn	.
8G	.	.	.	.	.	.	.
8G	.	4f#	.	4ee-	.	.	.
8GJ	.	.	.	.	.	.	.
8GL	.	4g	.	4dd	.	4bb	.
8G	.	.	.	.	.	.	.
8G	.	4c#)	.	4gg)	.	4bb-)	.
8GJ	.	.	.	.	.	.	.
!!LO:LB
=94	=94	=94	=94	=94	=94	=94	=94
8GnL	.	(4d	.	(4gg_	.	(4aa	.
8G	.	.	.	.	.	.	.
8G	.	4cn	.	8ff#L	.	(4.ddd	.
8GJ	.	.	.	8eeJ	.	.	.
8GL	.	4B	.	2ff#y)	.	.	.
8G	.	.	.	.	.	8eeeL	.
8G	.	4A)	.	.	.	8cccn	.
8GJ	.	.	.	.	.	8dddJ))	.
=95	=95	=95	=95	=95	=95	=95	=95
(2GGn	.	4Gn	.	8ggL	.	4bbn	.
.	.	.	.	8dd	.	.	.
.	.	4r	.	8dd	.	4r	.
.	.	.	.	8ddJ	.	.	.
4FF#y	.	2r	.	8ddL	.	2r	.
.	.	.	.	8ccn	.	.	.
4FFn)	.	.	.	8b	.	.	.
.	.	.	.	8aJ	.	.	.
=96	=96	=96	=96	=96	=96	=96	=96
4EE	.	(2e	.	4g#	.	8r	.
.	.	.	.	.	.	8eeL	.
4r	.	.	.	4r	.	8ee	.
.	.	.	.	.	.	8eeJ	.
2r	.	4d#	.	2r	.	8ff#yL	.
.	.	.	.	.	.	8ee	.
.	.	4dn)	.	.	.	8gg#	.
.	.	.	.	.	.	8eeJ	.
=97	=97	=97	=97	=97	=97	=97	=97
(2AA	.	4cn	.	8r	.	4aa	.
.	.	.	.	8eeL	.	.	.
.	.	4r	.	8ee	.	4r	.
.	.	.	.	8eeJ	.	.	.
4GG#	.	2r	.	8eeL	.	2r	.
.	.	.	.	8dd	.	.	.
4GGn)	.	.	.	8ccn	.	.	.
.	.	.	.	8bJ	.	.	.
=98	=98	=98	=98	=98	=98	=98	=98
4FF	.	(2f#y	.	4a#	.	8r	.
.	.	.	.	.	.	8ff#yL	.
4r	.	.	.	4r	.	8ff#y	.
.	.	.	.	.	.	8ff#yJ	.
2r	.	4e#	.	2r	.	8gg#L	.
.	.	.	.	.	.	8ff#y	.
.	.	4en)	.	.	.	8aa#	.
.	.	.	.	.	.	8ff#yJ	.
=99	=99	=99	=99	=99	=99	=99	=99
(2B	.	8dL	.	1r	.	4bb	.
.	.	8f#y	.	.	.	.	.
.	.	8f#y	.	.	.	4r	.
.	.	8f#yJ	.	.	.	.	.
4A#	.	8f#yL	.	.	.	2r	.
.	.	8e	.	.	.	.	.
4An)	.	8d	.	.	.	.	.
.	.	8c#J	.	.	.	.	.
=100	=100	=100	=100	=100	=100	=100	=100
4G#	.	8B#L	.	(2gg	.	1r	.
.	.	8g#	.	.	.	.	.
4E	.	8g#y	.	.	.	.	.
.	.	8g#yJ	.	.	.	.	.
4D#	.	8a#L	.	4ff##	.	.	.
.	.	8g#y	.	.	.	.	.
4G#y	.	8b#	.	4ff#)	.	.	.
.	.	8g#yJ	.	.	.	.	.
=101	=101	=101	=101	=101	=101	=101	=101
4C#y	.	4cc#y	.	8ee#L	.	(2ccc#y	.
.	.	.	.	8cc#y	.	.	.
4r	.	4An	.	8cc#y	.	.	.
.	.	.	.	8cc#yJ	.	.	.
2r	.	4G#y	.	8dd#L	.	4bb#	.
.	.	.	.	8cc#y	.	.	.
.	.	4c#y	.	8ee#y	.	4bbn)	.
.	.	.	.	8cc#yJ	.	.	.
=102	=102	=102	=102	=102	=102	=102	=102
4r	.	8F#yL	.	(2ff#y	.	4aa#	.
.	.	8f#y	.	.	.	.	.
4D#	.	8f#y	.	.	.	4r	.
.	.	8f#yJ	.	.	.	.	.
4C#y	.	8g#yL	.	4ee#	.	2r	.
.	.	8f#y	.	.	.	.	.
4F#y	.	8a#	.	4een)	.	.	.
.	.	8f#yJ	.	.	.	.	.
=103	=103	=103	=103	=103	=103	=103	=103
4BB	.	4b	.	8dd#L	.	(2bb	.
.	.	.	.	8b	.	.	.
4r	.	4G#y	.	8b	.	.	.
.	.	.	.	8bJ	.	.	.
2r	.	4F#y	.	8cc#yL	.	4aa#	.
.	.	.	.	8b	.	.	.
.	.	4B	.	8dd#y	.	4aan)	.
.	.	.	.	8bJ	.	.	.
=104	=104	=104	=104	=104	=104	=104	=104
8r	.	8EL	.	(2ee	.	4gg#y	.
8EL	.	8G#y	.	.	.	.	.
8E	.	8G#y	.	.	.	4r	.
8EJ	.	8G#yJ	.	.	.	.	.
8F#yL	.	8AL	.	4dd#	.	2r	.
8E	.	8G#y	.	.	.	.	.
8G#y	.	8B	.	4ddn)	.	.	.
8EJ	.	8G#yJ	.	.	.	.	.
=105	=105	=105	=105	=105	=105	=105	=105
4A	.	(4c#y	.	(4cc#y	.	(2aa	.
4r	.	4d#)	.	4ccn	.	.	.
2r	.	2e	.	4b	.	4gg#y	.
.	.	.	.	4a#)	.	4ggn)	.
!!LO:LB
=106	=106	=106	=106	=106	=106	=106	=106
(2B	.	(4d#	.	(4b	.	(4ff#y	.
.	.	4dn	.	4g#y	.	4ee#	.
4A#	.	4c#y	.	4gn	.	4een	.
4An)	.	4cn)	.	4f#y)	.	4dd#)	.
=107	=107	=107	=107	=107	=107	=107	=107
(4G#y	.	(4B	.	8e#L	.	8ddnL	.
.	.	.	.	8e#y	.	8dd	.
4A	.	4c#	.	8f#y	.	8cc#y	.
.	.	.	.	8f#yJ	.	8cc#yJ	.
4B	.	4d	.	8g#L	.	8bL	.
.	.	.	.	8g#y	.	8b	.
4B#)	.	4d#)	.	8f#y	.	8a	.
.	.	.	.	8f#yJ	.	8aJ	.
=108	=108	=108	=108	=108	=108	=108	=108
(2c#y	.	(2e#	.	8e#L	.	8g#L	.
.	.	.	.	8ee#	.	8gg#	.
.	.	.	.	8ee#y	.	8gg#y	.
.	.	.	.	8ee#yJ	.	8gg#yJ	.
4B#	.	4d#	.	8ff#yL	.	8gg#yL	.
.	.	.	.	8ff#y	.	8gg#y	.
4Bn)	.	4dn)	.	8ee#y	.	8gg#y	.
.	.	.	.	8ee#yJ	.	8gg#yJ	.
=109	=109	=109	=109	=109	=109	=109	=109
8AL	.	8c#yL	.	(2aa	.	(2ccc#y	.
8AA	.	8C#y	.	.	.	.	.
8A	.	8c#y	.	.	.	.	.
8AJ	.	8c#yJ	.	.	.	.	.
8BL	.	8dL	.	4gg#y	.	4bb	.
8B	.	8d	.	.	.	.	.
8B#	.	8d#	.	4ff#y)	.	4aa)	.
8B#yJ	.	8d#yJ	.	.	.	.	.
=110	=110	=110	=110	=110	=110	=110	=110
(2c#y	.	(2e#	.	8ee#L	.	8gg#yL	.
.	.	.	.	8e#	.	8g#y	.
.	.	.	.	8ee#y	.	8gg#y	.
.	.	.	.	8ee#yJ	.	8gg#yJ	.
4B#	.	4d#	.	8ff#yL	.	8gg#yL	.
.	.	.	.	8ff#y	.	8gg#y	.
4Bn)	.	4dn)	.	8ee#y	.	8gg#y	.
.	.	.	.	8ee#yJ	.	8gg#yJ	.
=111	=111	=111	=111	=111	=111	=111	=111
8AL	.	8c#yL	.	(2aa	.	(2ccc#y	.
8AA	.	8C#y	.	.	.	.	.
8A	.	8c#y	.	.	.	.	.
8AJ	.	8c#yJ	.	.	.	.	.
8BL	.	8dL	.	4gg#y	.	4bb	.
8B	.	8d	.	.	.	.	.
8B#	.	8d#	.	4ff#y)	.	4aa)	.
8B#yJ	.	8d#yJ	.	.	.	.	.
!!LO:LB
=112	=112	=112	=112	=112	=112	=112	=112
8c#yL	.	4e#	.	4ee#	.	4gg#y	.
8c#y	.	.	.	.	.	.	.
8A	.	4c#y	.	4ff#y	.	4aa	.
8F#yJ	.	.	.	.	.	.	.
8c#yL	.	4cc#y	.	4ee#y	.	4gg#y	.
8c#y	.	.	.	.	.	.	.
8A	.	4c#y	.	4ff#y	.	4aa	.
8F#yJ	.	.	.	.	.	.	.
=113	=113	=113	=113	=113	=113	=113	=113
4c#y	.	4cc#y	.	4ee#	.	4gg#y	.
4r	.	4r	.	4r	.	4r	.
2r	.	2r	.	2r	.	2r	.
=114	=114	=114	=114	=114	=114	=114	=114
(>1D	.	(<1A	.	[1d	.	(<1f#y	.
=115	=115	=115	=115	=115	=115	=115	=115
1BB)	.	1Gn)	.	1d_	.	1gn)	.
=116	=116	=116	=116	=116	=116	=116	=116
(2AA	.	(2A	.	1d]	.	(2f#y	.
2GG#)	.	2B)	.	.	.	2e)	.
=117	=117	=117	=117	=117	=117	=117	=117
1GGn	.	1E	.	1c#y	.	[1a	.
=118	=118	=118	=118	=118	=118	=118	=118
(2FF#y	.	1B	.	(2d#	.	(2a_	.
2EE)	.	.	.	2dn	.	2g#	.
=119	=119	=119	=119	=119	=119	=119	=119
(2AA#	.	(2E	.	2c#y	.	2gn	.
2BB)	.	2D)	.	2d)	.	2f#y)	.
=120	=120	=120	=120	=120	=120	=120	=120
(2GG	.	(2D_	.	2d]	.	(2b	.
2GG#)	.	2B)	.	2d	.	2e)	.
=121	=121	=121	=121	=121	=121	=121	=121
1AA	.	1A	.	1c#y	.	1e	.
!!LO:LB
=122	=122	=122	=122	=122	=122	=122	=122
(>1D	.	(1A	.	(8dL	.	(1ff#y	.
.	.	.	.	8e	.	.	.
.	.	.	.	8f#y	.	.	.
.	.	.	.	8gnJ	.	.	.
.	.	.	.	8aL	.	.	.
.	.	.	.	8b	.	.	.
.	.	.	.	8cc#y	.	.	.
.	.	.	.	8ddJ)	.	.	.
=123	=123	=123	=123	=123	=123	=123	=123
1BB)	.	1Gn)	.	(8cc#yL	.	1ggn)	.
.	.	.	.	8dd	.	.	.
.	.	.	.	8cc#y	.	.	.
.	.	.	.	8ddJ	.	.	.
.	.	.	.	8cc#yL	.	.	.
.	.	.	.	8dd	.	.	.
.	.	.	.	8ee	.	.	.
.	.	.	.	8ddJ)	.	.	.
=124	=124	=124	=124	=124	=124	=124	=124
(2AA	.	[1A	.	(8cc#yL	.	(2ff#y	.
.	.	.	.	8dd	.	.	.
.	.	.	.	8ee	.	.	.
.	.	.	.	8ddJ	.	.	.
2GGn)	.	.	.	8cc#yL	.	2ee)	.
.	.	.	.	8dd	.	.	.
.	.	.	.	8b	.	.	.
.	.	.	.	8cc#yJ)	.	.	.
=125	=125	=125	=125	=125	=125	=125	=125
1FF#y	.	(4A_	.	(8dd#L	.	1aa	.
.	.	.	.	8ccn	.	.	.
.	.	4B	.	8b	.	.	.
.	.	.	.	8aJ	.	.	.
.	.	4cn	.	8gnL	.	.	.
.	.	.	.	8f#y	.	.	.
.	.	4B)	.	8e	.	.	.
.	.	.	.	8d#J)	.	.	.
=126	=126	=126	=126	=126	=126	=126	=126
(1EE	.	(1B	.	(8eL	.	(1ggn	.
.	.	.	.	8f#y	.	.	.
.	.	.	.	8gn	.	.	.
.	.	.	.	8aJ	.	.	.
.	.	.	.	8bL	.	.	.
.	.	.	.	8cc#	.	.	.
.	.	.	.	8dd#	.	.	.
.	.	.	.	8eeJ)	.	.	.
=127	=127	=127	=127	=127	=127	=127	=127
1Cn)	.	1A)	.	(8dd#L	.	1aa)	.
.	.	.	.	8ee	.	.	.
.	.	.	.	8dd#y	.	.	.
.	.	.	.	8eeJ	.	.	.
.	.	.	.	8dd#yL	.	.	.
.	.	.	.	8ee	.	.	.
.	.	.	.	8ff#y	.	.	.
.	.	.	.	8eeJ)	.	.	.
=128	=128	=128	=128	=128	=128	=128	=128
(2BB	.	[1B	.	(8dd#L	.	(2ggn	.
.	.	.	.	8ee	.	.	.
.	.	.	.	8ff#y	.	.	.
.	.	.	.	8eeJ	.	.	.
2AA)	.	.	.	8dd#yL	.	2ff#y)	.
.	.	.	.	8ee	.	.	.
.	.	.	.	8cc#y	.	.	.
.	.	.	.	8dd#yJ)	.	.	.
=129	=129	=129	=129	=129	=129	=129	=129
1GG#	.	(4B_	.	(8ee#L	.	1bb	.
.	.	.	.	8ddn	.	.	.
.	.	4c#	.	8cc#y	.	.	.
.	.	.	.	8bJ	.	.	.
.	.	4d	.	8aL	.	.	.
.	.	.	.	8g#	.	.	.
.	.	4c#y)	.	8f#y	.	.	.
.	.	.	.	8e#J)	.	.	.
=130	=130	=130	=130	=130	=130	=130	=130
(1FF#y	.	4r	.	(8enL	.	(>1aa#	.
.	.	.	.	8f#y	.	.	.
.	.	4c#y	.	8g#	.	.	.
.	.	.	.	8a#J	.	.	.
.	.	(4gn	.	8bL	.	.	.
.	.	.	.	8cc#y	.	.	.
.	.	4f#y)	.	8dd#	.	.	.
.	.	.	.	8eeJ)	.	.	.
=131	=131	=131	=131	=131	=131	=131	=131
1BB)	.	4r	.	(8dd#L	.	1aan	.
.	.	.	.	8cc#y	.	.	.
.	.	4f#y	.	8b	.	.	.
.	.	.	.	8anJ	.	.	.
.	.	(4cn	.	8gnL	.	.	.
.	.	.	.	8f#y	.	.	.
.	.	4B)	.	8e	.	.	.
.	.	.	.	8d#J)	.	.	.
=132	=132	=132	=132	=132	=132	=132	=132
(<1EE	.	4r	.	(8dnL	.	1gg#	.
.	.	.	.	8e	.	.	.
.	.	4B	.	8f#y	.	.	.
.	.	.	.	8g#J	.	.	.
.	.	(4fn	.	8aL	.	.	.
.	.	.	.	8b	.	.	.
.	.	4e)	.	8cc#y	.	.	.
.	.	.	.	8ddnJ)	.	.	.
!!LO:LB
=133	=133	=133	=133	=133	=133	=133	=133
1AA)	.	4r	.	(8cc#yL	.	1ggn)	.
.	.	.	.	8b	.	.	.
.	.	4e	.	8a	.	.	.
.	.	.	.	8gnJ	.	.	.
.	.	(4B-	.	8fnL	.	.	.
.	.	.	.	8e	.	.	.
.	.	4A)	.	8d	.	.	.
.	.	.	.	8c#yJ)	.	.	.
=134	=134	=134	=134	=134	=134	=134	=134
[1D	crescendo	(2A	crescendo	8dL	cresc.	(2ff#y	crescendo
.	.	.	.	8f#	.	.	.
.	.	.	.	8a	.	.	.
.	.	.	.	8ddJ	.	.	.
.	.	2A#)	.	8c#yL	.	2ee	.
.	.	.	.	8e	.	.	.
.	.	.	.	8gn	.	.	.
.	.	.	.	8cc#yJ	.	.	.
=135	=135	=135	=135	=135	=135	=135	=135
(2D_	.	(2Bn	.	8BL	.	2dd	.
.	.	.	.	8d	.	.	.
.	.	.	.	8f#y	.	.	.
.	.	.	.	8bJ	.	.	.
2D#)	.	2f#)	.	8AL	.	2cc#y)	.
.	.	.	.	8c#y	.	.	.
.	.	.	.	8f#y	.	.	.
.	.	.	.	8aJ	.	.	.
=136	=136	=136	=136	=136	=136	=136	=136
4E	.	8g#L	.	4e	.	4b	.
.	.	8b	.	.	.	.	.
4r	.	8g#y	.	4r	.	4r	.
.	.	8eJ	.	.	.	.	.
2r	.	8dL	.	4g	.	4b	.
.	.	8e	.	.	.	.	.
.	.	8d	.	4r	.	4r	.
.	.	8BJ	.	.	.	.	.
=137	=137	=137	=137	=137	=137	=137	=137
1r	.	8cnL	.	4a	.	4ccn	.
.	.	8e	.	.	.	.	.
.	.	8a	.	4r	.	4r	.
.	.	8eJ	.	.	.	.	.
.	.	8cL	.	4a	.	4cc	.
.	.	8e	.	.	.	.	.
.	.	8c	.	4r	.	4r	.
.	.	8AJ	.	.	.	.	.
!!LO:LB
=138	=138	=138	=138	=138	=138	=138	=138
8G#L	.	4e	.	4b	.	4dd	.
8B	.	.	.	.	.	.	.
8G#y	.	4r	.	4r	.	4r	.
8EJ	.	.	.	.	.	.	.
8DL	.	4e	.	4gg#y	.	4bb	.
8E	.	.	.	.	.	.	.
8D	.	4r	.	4r	.	4r	.
8BBJ	.	.	.	.	.	.	.
=139	=139	=139	=139	=139	=139	=139	=139
8CnL	.	4e	.	4aa	.	4cccn	.
8E	.	.	.	.	.	.	.
8A	.	4r	.	4r	.	4r	.
8EJ	.	.	.	.	.	.	.
8CL	.	4e	.	4a	.	4ccn	.
8E	.	.	.	.	.	.	.
8C	.	4r	.	4r	.	4r	.
8AAJ	.	.	.	.	.	.	.
=140	=140	=140	=140	=140	=140	=140	=140
4EE	.	4e	.	4g#y	.	4b	.
4E	.	4G#y	.	4B	.	4r	.
2r	.	2r	.	2r	.	(8g#yL	.
.	.	.	.	.	.	8e	.
.	.	.	.	.	.	8a	.
.	.	.	.	.	.	8f#yJ	.
=141	=141	=141	=141	=141	=141	=141	=141
4r	.	4r	.	4r	.	4b)	.
4E	.	4G#y	.	4B	.	4r	.
2r	.	2r	.	2r	.	(8bL	.
.	.	.	.	.	.	8g#y	.
.	.	.	.	.	.	8cc#	.
.	.	.	.	.	.	8aJ	.
=142	=142	=142	=142	=142	=142	=142	=142
4r	.	4r	.	4r	.	4dd)	.
4E	.	4G#y	.	4B	.	4r	.
2r	.	2r	.	2r	.	(8ddL	.
.	.	.	.	.	.	8b)	.
.	.	.	.	.	.	8gg#y'	.
.	.	.	.	.	.	8gg#y'J	.
=143	=143	=143	=143	=143	=143	=143	=143
4e	.	4g#y	.	4b	.	(8gg#yL	.
.	.	.	.	.	.	8ee)	.
4r	.	4r	.	4r	.	8bb'	.
.	.	.	.	.	.	8bb'J	.
4e	.	4g#y	.	4b	.	(8bbL	.
.	.	.	.	.	.	8gg#y)	.
4r	.	4r	.	4r	.	8ddd	.
.	.	.	.	.	.	8dddJ	.
!!LO:LB
=144	=144	=144	=144	=144	=144	=144	=144
4e	.	4g#y	.	4b	.	4ddd	.
4r	.	4r	.	4r	.	4r	.
2r	.	2r	.	2r	.	2r	.
=145	=145	=145	=145	=145	=145	=145	=145
1r	.	1r	.	1r	.	(2ee	.
.	.	.	.	.	.	4dd#	.
.	.	.	.	.	.	4ddn)	.
=146	=146	=146	=146	=146	=146	=146	=146
1r	.	1r	.	4r	.	4cc#y	.
.	.	.	.	(4a	.	4r	.
.	.	.	.	4cc#y	.	4r	.
.	.	.	.	4b	.	(4ee#	.
=147	=147	=147	=147	=147	=147	=147	=147
1r	.	8r	.	4a#	.	4ff#y)	.
.	.	8f#yL	.	.	.	.	.
.	.	8f#y	.	4f#y	.	(4.ff#y	.
.	.	8f#yJ	.	.	.	.	.
.	.	8f#yL	.	4g#y	.	.	.
.	.	8e	.	.	.	8ggnL	.
.	.	8d	.	4a#y)	.	8ee	.
.	.	8c#yJ	.	.	.	8ff#yJ)	.
=148	=148	=148	=148	=148	=148	=148	=148
8r	.	4B	.	4b	.	4dd	.
8BBL	.	.	.	.	.	.	.
8BB	.	(2B	.	(2d	.	4r	.
8BBJ	.	.	.	.	.	.	.
8C#yL	.	.	.	.	.	2r	.
8BB	.	.	.	.	.	.	.
8D	.	4A)	.	4c#y)	.	.	.
8BBJ	.	.	.	.	.	.	.
=149	=149	=149	=149	=149	=149	=149	=149
4E	.	4G#y	.	4B	.	(2dd	.
4r	.	4r	.	4r	.	.	.
2r	.	2r	.	2r	.	4cc#y	.
.	.	.	.	.	.	4ccn)	.
=150	=150	=150	=150	=150	=150	=150	=150
1r	.	1r	.	4r	.	4b	.
.	.	.	.	(4g#y	.	4r	.
.	.	.	.	4b	.	4r	.
.	.	.	.	4an	.	(4dd#	.
=151	=151	=151	=151	=151	=151	=151	=151
1r	.	8r	.	4g#y	.	4ee)	.
.	.	8eL	.	.	.	.	.
.	.	8e	.	4e	.	(4.ee	.
.	.	8eJ	.	.	.	.	.
.	.	8eL	.	4f#y	.	.	.
.	.	8d	.	.	.	8ff#yL	.
.	.	8c#y	.	4g#y)	.	8ddn	.
.	.	8BJ	.	.	.	8eeJ)	.
=152	=152	=152	=152	=152	=152	=152	=152
8r	.	4A	.	4a	.	4cc#y	.
8AAL	.	.	.	.	.	.	.
8AA	.	(2A	.	(2c#y	.	4r	.
8AAJ	.	.	.	.	.	.	.
8BBL	.	.	.	.	.	2r	.
8AA	.	.	.	.	.	.	.
8C#y	.	4G#y)	.	4B)	.	.	.
8AAJ	.	.	.	.	.	.	.
=153	=153	=153	=153	=153	=153	=153	=153
4D	.	4F#y	.	4A	.	8r	.
.	.	.	.	.	.	8aL	.
4r	.	(2f#y	.	(2a	.	8a	.
.	.	.	.	.	.	8aJ	.
2r	.	.	.	.	.	8bL	.
.	.	.	.	.	.	8a	.
.	.	4e)	.	4gn)	.	8cc#y	.
.	.	.	.	.	.	8aJ	.
=154	=154	=154	=154	=154	=154	=154	=154
8r	.	4d	.	4f#y	.	4dd	.
8BBL	.	.	.	.	.	.	.
8BB	.	(2B	.	(2d	.	4r	.
8BBJ	.	.	.	.	.	.	.
8C#yL	.	.	.	.	.	2r	.
8BB	.	.	.	.	.	.	.
8D	.	4A)	.	4c#y)	.	.	.
8BBJ	.	.	.	.	.	.	.
!!LO:LB
=155	=155	=155	=155	=155	=155	=155	=155
4E	.	4G#y	.	4B	.	8r	.
.	.	.	.	.	.	8bL	.
4r	.	(2g#y	.	(2b	.	8b	.
.	.	.	.	.	.	8bJ	.
2r	.	.	.	.	.	8cc#yL	.
.	.	.	.	.	.	8b	.
.	.	4f#y)	.	4a)	.	8dd#	.
.	.	.	.	.	.	8bJ	.
=156	=156	=156	=156	=156	=156	=156	=156
8r	.	4e	.	4g#y	.	4ee	.
8C#yL	.	.	.	.	.	.	.
8C#y	.	(2c#y	.	(2e	.	4r	.
8C#yJ	.	.	.	.	.	.	.
8DL	.	.	.	.	.	2r	.
8C#y	.	.	.	.	.	.	.
8E	.	4B)	.	4d)	.	.	.
8C#yJ	.	.	.	.	.	.	.
=157	=157	=157	=157	=157	=157	=157	=157
4F#y	.	4A	.	8c#yL	.	4r	.
.	.	.	.	8a	.	.	.
4r	.	4f#y	.	8a	.	(4.aa	.
.	.	.	.	8aJ	.	.	.
2r	.	4e	.	8bL	.	.	.
.	.	.	.	8a	.	8bbL	.
.	.	4a	.	8cc#y	.	8ggn	.
.	.	.	.	8aJ	.	8aaJ)	.
=158	=158	=158	=158	=158	=158	=158	=158
4r	.	8dL	.	4dd	.	4ff#y	.
.	.	8f#y	.	.	.	.	.
4d	.	8f#y	.	(2b	.	(4.ff#y	.
.	.	8f#yJ	.	.	.	.	.
4c#y	.	8g#L	.	.	.	.	.
.	.	8f#y	.	.	.	8ggnL	.
4f#y	.	8a#	.	4cc#y)	.	8ee	.
.	.	8f#yJ	.	.	.	8ff#yJ)	.
=159	=159	=159	=159	=159	=159	=159	=159
8BL	.	4b	.	4dd	.	4dd	.
8E	.	.	.	.	.	.	.
8E	.	4g#y	.	(4.b	.	(4.dd	.
8EJ	.	.	.	.	.	.	.
8G#yL	.	[2e	.	.	.	.	.
8E	.	.	.	8cc#yL	.	8eeL	.
8A	.	.	.	8a	.	8cc#y	.
8EJ	.	.	.	8bJ)	.	8ddJ)	.
!!LO:LB
=160	=160	=160	=160	=160	=160	=160	=160
4e	.	8eL]	.	8g#yL	.	4b	.
.	.	8f#y	.	8a	.	.	.
4r	.	8e	.	8g#y	.	4r	.
.	.	8dJ	.	8f#yJ	.	.	.
2r	.	8c#yL	.	8eL	.	2r	.
.	.	8B	.	8d	.	.	.
.	.	8A	.	8c#y	.	.	.
.	.	8G#yJ	.	8BJ	.	.	.
=161	=161	=161	=161	=161	=161	=161	=161
1r	.	4A	.	4c#y	.	(2ee	.
.	.	4r	.	4r	.	.	.
.	.	2r	.	2r	.	4dd#	.
.	.	.	.	.	.	4ddn)	.
=162	=162	=162	=162	=162	=162	=162	=162
(2c#y	.	(2e	.	(2a	.	4cc#y	.
.	.	.	.	.	.	4r	.
4B#	.	4d#	.	4g#y	.	4r	.
4Bn)	.	4dn)	.	4gn)	.	(4ee#	.
=163	=163	=163	=163	=163	=163	=163	=163
4A#	.	2c#y	.	4f#y	.	4ff#y)	.
(4FF#y	.	.	.	(4a#	.	(4.ff#y	.
4GG#y	.	[2f#y	.	4b	.	.	.
.	.	.	.	.	.	8ggnL	.
4AA#	.	.	.	4cc#y)	.	8ee	.
.	.	.	.	.	.	8ff#yJ)	.
=164	=164	=164	=164	=164	=164	=164	=164
4BB	.	(8f#yL_	.	(8ddL	.	4dd	.
.	.	8gn	.	8ee	.	.	.
4C#y	.	8e	.	8cc#y	.	4r	.
.	.	8f#yJ	.	8ddJ	.	.	.
4D	.	8dL	.	8bL	.	2r	.
.	.	8e	.	8cc#y	.	.	.
4D#)	.	8c#y	.	8an	.	.	.
.	.	8dJ)	.	8bJ)	.	.	.
=165	=165	=165	=165	=165	=165	=165	=165
4E	.	4B	.	4g#y	.	(2dd	.
4r	.	4r	.	4r	.	.	.
2r	.	2r	.	2r	.	4cc#y	.
.	.	.	.	.	.	4ccn)	.
!!LO:LB
=166	=166	=166	=166	=166	=166	=166	=166
(2B	.	(2d	.	(2g#y	.	4b	.
.	.	.	.	.	.	4r	.
4A#	.	4c#y	.	4f#y	.	4r	.
4An)	.	4cn)	.	4fn)	.	(4dd#	.
=167	=167	=167	=167	=167	=167	=167	=167
4G#y	.	2B	.	4e	.	4ee)	.
(4EE	.	.	.	(4g#y	.	(4.ee	.
4FF#y	.	[2e	.	4a	.	.	.
.	.	.	.	.	.	8ff#yL	.
4GG#y	.	.	.	4b)	.	8ddn	.
.	.	.	.	.	.	8eeJ)	.
=168	=168	=168	=168	=168	=168	=168	=168
4AA	.	(8eL_	.	(8cc#yL	.	4cc#y	.
.	.	8f#y	.	8dd	.	.	.
4BB	.	8d	.	8b	.	4r	.
.	.	8eJ	.	8cc#yJ	.	.	.
2C#y)	.	8c#L	.	8aL	.	2r	.
.	.	8d	.	8b	.	.	.
.	.	8B	.	8g#y	.	.	.
.	.	8c#yJ)	.	8aJ)	.	.	.
=169	=169	=169	=169	=169	=169	=169	=169
(4D	.	(4A	.	(4f#	.	4r	.
4BB	.	2B	.	4g#y)	.	(4.dd	.
4C#y	.	.	.	(4e	.	.	.
.	.	.	.	.	.	8eeL	.
4D)	.	4A)	.	4a)	.	8cc#y	.
.	.	.	.	.	.	8ddJ)	.
=170	=170	=170	=170	=170	=170	=170	=170
(2E	.	4e	.	(8aL_	.	(4b	.
.	.	.	.	8b	.	.	.
.	.	4r	.	8g#y	.	4.ee	.
.	.	.	.	8aJ)	.	.	.
2B)	.	2r	.	(4f#y	.	.	.
.	.	.	.	.	.	8ff#yL	.
.	.	.	.	[4b	.	8dd	.
.	.	.	.	.	.	8eeJ)	.
=171	=171	=171	=171	=171	=171	=171	=171
2F#y	.	1r	.	8bL]	.	(4cc#y	.
.	.	.	.	8cc#y	.	.	.
.	.	.	.	8a	.	4.ff#y	.
.	.	.	.	8bJ)	.	.	.
(>4BB	.	.	.	(4.gn	.	.	.
.	.	.	.	.	.	8ggn	.
4C#y	.	.	.	.	.	4ee)	.
.	.	.	.	8a)	.	.	.
=172	=172	=172	=172	=172	=172	=172	=172
4D	.	2r	.	(4.f#y	.	8eeL]	.
.	.	.	.	.	.	(8ff#yJ	.
4BB	.	.	.	.	.	4.dd	.
.	.	.	.	8g#)	.	.	.
4C#y	.	4r	.	[2e	.	.	.
.	.	.	.	.	.	8eeL	.
4AA)	.	[(4A	.	.	.	8cc#y	.
.	.	.	.	.	.	8ddJ)	.
=173	=173	=173	=173	=173	=173	=173	=173
(4EE	.	8AL]	.	4e]	.	4b	.
.	.	8B	.	.	.	.	.
(4.E	.	8G#y	.	4r	.	4r	.
.	.	8AJ)	.	.	.	.	.
.	.	(4F#y	.	2r	.	2r	.
8F#yL	.	.	.	.	.	.	.
8D	.	[4B	.	.	.	.	.
8EJ))	.	.	.	.	.	.	.
=174	=174	=174	=174	=174	=174	=174	=174
(4C#y	.	8BL]	.	1r	.	1r	.
.	.	8c#y	.	.	.	.	.
4.F#y	.	8A	.	.	.	.	.
.	.	8BJ)	.	.	.	.	.
.	.	(4G#y	.	.	.	.	.
8G#yL	.	.	.	.	.	.	.
8E	.	[4c#y	.	.	.	.	.
8F#yJ)	.	.	.	.	.	.	.
=175	=175	=175	=175	=175	=175	=175	=175
(4.D	.	8c#yL]	.	2r	.	1r	.
.	.	8dJ	.	.	.	.	.
.	.	4.B)	.	.	.	.	.
8E)	.	.	.	.	.	.	.
(4.C#y	.	.	.	4r	.	.	.
.	.	(8c#y	.	.	.	.	.
.	.	4A)	.	[(4ee	.	.	.
8D)	.	.	.	.	.	.	.
=176	=176	=176	=176	=176	=176	=176	=176
2BB	.	(4A_	.	8eeL]	.	4r	.
.	.	.	.	8ff#y	.	.	.
.	.	4G#y)	.	8dd	.	(4.bb	.
.	.	.	.	8eeJ)	.	.	.
4C#y	.	4e	.	(4cc#y	.	.	.
.	.	.	.	.	.	8ccc#yL	.
4D#	.	[4B	.	4ff#y)	.	8aa	.
.	.	.	.	.	.	8bbJ)	.
!!LO:LB
=177	=177	=177	=177	=177	=177	=177	=177
2E	.	(4B_	.	8ff#yL]	.	(4.gg#y	.
.	.	.	.	(8dd#J	.	.	.
.	.	4g#y	.	4.ee	.	.	.
.	.	.	.	.	.	8aa)	.
2E	.	4a#	.	.	.	(4.ff#y	.
.	.	.	.	8cc#y	.	.	.
.	.	4b	.	4ddn)	.	.	.
.	.	.	.	.	.	8gg#y)	.
=178	=178	=178	=178	=178	=178	=178	=178
2E	.	4g#y	.	8ddL]	.	(4.ee	.
.	.	.	.	(8bJ	.	.	.
.	.	4an	.	4.cc#y	.	.	.
.	.	.	.	.	.	8ff#y)	.
2E	.	4f#y	.	.	.	(4.dd	.
.	.	.	.	8a	.	.	.
.	.	4g#y)	.	4b)	.	.	.
.	.	.	.	.	.	8ee)	.
=179	=179	=179	=179	=179	=179	=179	=179
[1EE	.	(4e	.	8bL]	.	(4.cc#y	.
.	.	.	.	(8g#yJ	.	.	.
.	.	4c#y	.	4.a	.	.	.
.	.	.	.	.	.	8ee)	.
.	.	4d#	.	.	.	(4.aa	.
.	.	.	.	8f#yL	.	.	.
.	.	4f#y)	.	8b	.	.	.
.	.	.	.	8aJ)	.	8dd#)	.
=180	=180	=180	=180	=180	=180	=180	=180
4EE]	.	4B	.	4g#y	.	8eeL	.
.	.	.	.	.	.	8bJ	.
4r	.	4r	.	4r	.	(4.ddn	.
2FFn	.	2r	.	4r	.	.	.
.	.	.	.	.	.	8ccnL	.
.	.	.	.	[(4d	.	8b	.
.	.	.	.	.	.	8aJ	.
=181	=181	=181	=181	=181	=181	=181	=181
2EE	.	2r	.	8dL]	.	4g#y)	.
.	.	.	.	8cn	.	.	.
.	.	.	.	8B	.	(4.dd	.
.	.	.	.	8AJ	.	.	.
2FFn	.	4r	.	4G#y)	.	.	.
.	.	.	.	.	.	8ccnL	.
.	.	[(>4dn	.	4r	.	8b	.
.	.	.	.	.	.	8aJ	.
!!LO:LB
=182	=182	=182	=182	=182	=182	=182	=182
4EE	.	8dL]	.	4r	.	4g#y)	.
.	.	8cn	.	.	.	.	.
4r	.	8B	.	2b	.	(4.dd	.
.	.	8AJ	.	.	.	.	.
4E	.	4G#y)	.	.	.	.	.
.	.	.	.	.	.	8cc#L	.
4Fn	.	4A	.	4a	.	8dd	.
.	.	.	.	.	.	8dd#J	.
=183	=183	=183	=183	=183	=183	=183	=183
4E	.	4B	.	4g#y	.	4ee)	.
(4.EE	.	(4.E	.	(4.e	.	4r	.
.	.	.	.	.	.	2r	.
8DD#L	.	8D#L	.	8d#L	.	.	.
8EE	.	8E	.	8e	.	.	.
8DDnJ)	.	8DnJ)	.	8dnJ)	.	.	.
=184	=184	=184	=184	=184	=184	=184	=184
4CC	.	4C	.	4c	.	(2e	.
4r	.	4r	.	4r	.	.	.
2r	.	2r	.	2r	.	4d#	.
.	.	.	.	.	.	4dn)	.
=185	=185	=185	=185	=185	=185	=185	=185
8AAL	.	(2A	.	1r	.	4c#y	.
8AA	.	.	.	.	.	.	.
8AA	.	.	.	.	.	4r	.
8AAJ	.	.	.	.	.	.	.
8AAL	.	4G#y	.	.	.	2r	.
8AA	.	.	.	.	.	.	.
8AA	.	4Gn)	.	.	.	.	.
8AAJ	.	.	.	.	.	.	.
=186	=186	=186	=186	=186	=186	=186	=186
8AAL	.	(2F#y	.	(2a	.	1r	.
8AA	.	.	.	.	.	.	.
8AA	.	.	.	.	.	.	.
8AAJ	.	.	.	.	.	.	.
8AAL	.	2E)	.	4g#y	.	.	.
8AA	.	.	.	.	.	.	.
8AA	.	.	.	4gn)	.	.	.
8AAJ	.	.	.	.	.	.	.
=187	=187	=187	=187	=187	=187	=187	=187
8AAL	.	(4D	.	2f#y	.	(2dd	.
8AA	.	.	.	.	.	.	.
8AA	.	4F#y)	.	.	.	.	.
8AAJ	.	.	.	.	.	.	.
8AAL	.	[2A	.	[2e	.	4cc#y	.
8AA	.	.	.	.	.	.	.
8AA	.	.	.	.	.	4ccn)	.
8AAJ	.	.	.	.	.	.	.
!!LO:LB
=188	=188	=188	=188	=188	=188	=188	=188
8AAL	.	(4A_	.	1e]	.	(4b	.
8AA	.	.	.	.	.	.	.
8AA	.	8G#L	.	.	.	(4.ee	.
8AAJ	.	8F#yJ	.	.	.	.	.
8AAL	.	2G#y)	.	.	.	.	.
8AA	.	.	.	.	.	8ff#yL	.
8AA	.	.	.	.	.	8dd	.
8AAJ	.	.	.	.	.	8eeJ))	.
=189	=189	=189	=189	=189	=189	=189	=189
8AAL	.	4A	.	(2ee	.	4cc#	.
8A	.	.	.	.	.	.	.
8A	.	4r	.	.	.	4r	.
8AJ	.	.	.	.	.	.	.
8AL	.	2r	.	4dd#	.	2r	.
8A	.	.	.	.	.	.	.
8A	.	.	.	4ddn)	.	.	.
8AJ	.	.	.	.	.	.	.
=190	=190	=190	=190	=190	=190	=190	=190
8AL	.	(2a	.	4cc#y	.	1r	.
8A	.	.	.	.	.	.	.
8A	.	.	.	4r	.	.	.
8AJ	.	.	.	.	.	.	.
8AL	.	4g#y	.	2r	.	.	.
8A	.	.	.	.	.	.	.
8A	.	4gn)	.	.	.	.	.
8AJ	.	.	.	.	.	.	.
=191	=191	=191	=191	=191	=191	=191	=191
8AL	.	(4f#y	.	(2aa	.	1r	.
8A	.	.	.	.	.	.	.
8A	.	4fn	.	.	.	.	.
8AJ	.	.	.	.	.	.	.
8AL	.	4e	.	4gg#y	.	.	.
8A	.	.	.	.	.	.	.
8A	.	4c#y)	.	4ggn)	.	.	.
8AJ	.	.	.	.	.	.	.
=192	=192	=192	=192	=192	=192	=192	=192
8AL	.	(4d	.	(4ff#y	.	(2ddd	.
8A	.	.	.	.	.	.	.
8A	.	4g#	.	4ffn	.	.	.
8AJ	.	.	.	.	.	.	.
8AL	.	4a	.	4ee	.	4ccc#y	.
8A	.	.	.	.	.	.	.
8A	.	4d#)	.	4aa)	.	4cccn)	.
8AJ	.	.	.	.	.	.	.
=193	=193	=193	=193	=193	=193	=193	=193
8AL	.	(4e	.	(4aa_	.	4bb	.
8A	.	.	.	.	.	.	.
8A	.	4dn	.	8gg#L	.	(4.eee	.
8AJ	.	.	.	8ff#J	.	.	.
8AL	.	4c#y	.	2gg#y)	.	.	.
8A	.	.	.	.	.	8ddd#L	.
8A	.	4B)	.	.	.	8eee	.
8AJ	.	.	.	.	.	8dddnJ)	.
=194	=194	=194	=194	=194	=194	=194	=194
4A	.	4A	.	4aa	.	8cccL	.
.	.	.	.	.	.	8aa	.
4r	.	(4.f#y	.	(4.dd	.	8aa	.
.	.	.	.	.	.	8aaJ	.
2r	.	.	.	.	.	8aaL	.
.	.	8gnL	.	8eeL	.	8aa	.
.	.	8e	.	8cc#y	.	8aa	.
.	.	8f#yJ)	.	8ddJ)	.	8aaJ	.
=195	=195	=195	=195	=195	=195	=195	=195
1r	.	4d	.	4b	.	8aaL	.
.	.	.	.	.	.	8aa	.
.	.	(4.e	.	(4.cc#y	.	8aa	.
.	.	.	.	.	.	8aaJ	.
.	.	.	.	.	.	8aaL	.
.	.	8f#yL	.	8ddL	.	8aa	.
.	.	8d	.	8b	.	8aa	.
.	.	8eJ)	.	8cc#yJ)	.	8aaJ	.
=196	=196	=196	=196	=196	=196	=196	=196
!!Error: measure 196, staff 1 is underfilled: adding token 8ryy at end of measure to complete its duration.
1r	.	4c#y	.	4a	.	(8aaL	.
.	.	.	.	.	.	8aa	.
.	.	(4.d	.	(4.ff#y	.	8aaJ	.
.	.	.	.	.	.	8aaL	.
.	.	.	.	.	.	8aa	.
.	.	8eL	.	8ggnL	.	8aa	.
.	.	8c#y	.	8ee	.	8aaJ	.
.	.	8dJ)	.	8ff#yJ)	.	8ryy	.
=197	=197	=197	=197	=197	=197	=197	=197
1r	.	4B	.	4dd	.	8aaL	.
.	.	.	.	.	.	8aa	.
.	.	(4.c#y	.	(4.ee	.	8aa	.
.	.	.	.	.	.	8aaJ	.
.	.	.	.	.	.	8aaL	.
.	.	8dL	.	8ff#yL	.	8aa	.
.	.	8B	.	8dd	.	8aa	.
.	.	8c#yJ)	.	8eeJ)	.	8aaJ	.
!!LO:LB
=198	=198	=198	=198	=198	=198	=198	=198
1r	.	4A	.	(8cc#yL	cresc.	4aa	cresc.
.	.	.	.	8ee	.	.	.
.	.	4r	.	8ccc#y	.	(4eee	.
.	.	.	.	8eeJ	.	.	.
.	.	2r	.	8bbL	.	4ddd	.
.	.	.	.	8ee	.	.	.
.	.	.	.	8aa	.	4ccc#y)	.
.	.	.	.	8eeJ)	.	.	.
=199	=199	=199	=199	=199	=199	=199	=199
4r	.	8r	.	4gg#y	.	4bb	.
.	.	8eeL	.	.	.	.	.
(4.d	.	8ee	.	(2gg#y	.	(2bb	.
.	.	8eeJ	.	.	.	.	.
.	.	8eeL	.	.	.	.	.
8eL	.	8ee	.	.	.	.	.
8c#y	.	8ee	.	4aa)	.	4ccc#y)	.
8dJ)	.	8eeJ	.	.	.	.	.
=200	=200	=200	=200	=200	=200	=200	=200
4B	.	8eeL	.	4bb	.	4ddd	.
.	.	8e	.	.	.	.	.
(4.d	.	8e	.	(2g#y	.	(2b	.
.	.	8eJ	.	.	.	.	.
.	.	8eL	.	.	.	.	.
8eL	.	8e	.	.	.	.	.
8c#y	.	8e	.	4a)	.	4cc#y)	.
8dJ)	.	8eJ	.	.	.	.	.
=201	=201	=201	=201	=201	=201	=201	=201
4B	.	8eL	.	4b	.	4dd	.
.	.	8ee	.	.	.	.	.
(4.d	.	8ee	.	(2gg#y	.	(2bb	.
.	.	8eeJ	.	.	.	.	.
.	.	8eeL	.	.	.	.	.
8eL	.	8ee	.	.	.	.	.
8c#y	.	8ee	.	4aa)	.	4ccc#y)	.
8dJ)	.	8eeJ	.	.	.	.	.
=202	=202	=202	=202	=202	=202	=202	=202
(2B	.	(2g#y	.	(2.ee	.	(4eee	.
.	.	.	.	.	.	2ddd	.
2c#y)	.	2a#)	.	.	.	.	.
.	.	.	.	4ggn)	.	4ccc#y)	.
=203	=203	=203	=203	=203	=203	=203	=203
4d	.	(8a#yL_	.	4ff#y	.	(8ccc#yL_	decrescendo
.	.	8bJ)	.	.	.	8bb	.
4r	.	4r	.	4r	.	8fff#y	.
.	.	.	.	.	.	8dddJ	.
2r	.	2r	.	2r	.	8ccc#yL	.
.	.	.	.	.	.	8bb	.
.	.	.	.	.	.	8ddd	.
.	.	.	.	.	.	8bbJ)	.
!!LO:LB
=204	=204	=204	=204	=204	=204	=204	=204
1r	.	1r	.	1r	.	(8ggnL	.
.	.	.	.	.	.	8ff#y	.
.	.	.	.	.	.	8bb	.
.	.	.	.	.	.	8ff#yJ	.
.	.	.	.	.	.	8eeL	.
.	.	.	.	.	.	8dd	.
.	.	.	.	.	.	8ff#y	.
.	.	.	.	.	.	8ddJ)	.
=205	=205	=205	=205	=205	=205	=205	=205
1r	.	1r	.	1r	.	(8cc#yL	.
.	.	.	.	.	.	8b	.
.	.	.	.	.	.	8a#	.
.	.	.	.	.	.	8bJ	.
.	.	.	.	.	.	8cc#yL	.
.	.	.	.	.	.	8b	.
.	.	.	.	.	.	8dd	.
.	.	.	.	.	.	8bJ)	.
=206	=206	=206	=206	=206	=206	=206	=206
(2E	.	(2d	.	(2g#	.	(2ee	.
2F#y)	.	2c#y)	.	2a)	.	2an)	.
=207	=207	=207	=207	=207	=207	=207	=207
(2D	.	1B	.	(2a_	.	(2ff#y	.
2E)	.	.	.	2d)	.	2g#y)	.
=208	=208	=208	=208	=208	=208	=208	=208
(2.FF#y	.	(2e	.	(2gn	.	[1a#	.
.	.	4d	.	2f#y)	.	.	.
4EE)	.	4c#y)	.	.	.	.	.
=209	=209	=209	=209	=209	=209	=209	=209
4DD	.	4d	.	4f#y]	.	(8a#yL_	.
.	.	.	.	.	.	8b	.
4r	.	4r	.	4r	.	8ff#y	.
.	.	.	.	.	.	8ddJ	.
2r	.	2r	.	2r	.	8cc#yL	.
.	.	.	.	.	.	8b	.
.	.	.	.	.	.	8dd	.
.	.	.	.	.	.	8bJ)	.
!!LO:LB
=210	=210	=210	=210	=210	=210	=210	=210
1r	.	1r	.	1r	.	(8gnL	.
.	.	.	.	.	.	8f#y	.
.	.	.	.	.	.	8b	.
.	.	.	.	.	.	8f#yJ	.
.	.	.	.	.	.	8eL	.
.	.	.	.	.	.	8d	.
.	.	.	.	.	.	8f#y	.
.	.	.	.	.	.	8dJ)	.
=211	=211	=211	=211	=211	=211	=211	=211
1r	.	1r	.	1r	.	(8c#yL	.
.	.	.	.	.	.	8B	.
.	.	.	.	.	.	8A#	.
.	.	.	.	.	.	8BJ	.
.	.	.	.	.	.	8c#yL	.
.	.	.	.	.	.	8B	.
.	.	.	.	.	.	8d	.
.	.	.	.	.	.	8BJ)	.
=212	=212	=212	=212	=212	=212	=212	=212
(2EE	.	(2D	.	(2G	.	(2e	.
2FF#y)	.	2C#y)	.	2A)	.	2An)	.
=213	=213	=213	=213	=213	=213	=213	=213
(2DD	.	(2D	.	(2A_	.	(2f#y	.
2EE)	.	2B)	.	2d)	.	2G#y)	.
=214	=214	=214	=214	=214	=214	=214	=214
4C#y	.	4A	.	8r	.	8r	.
.	.	.	.	(8c#yL	.	(8eL	.
4r	.	4r	.	8a)	.	8ee)	.
.	.	.	.	8aJ	.	8eeJ	.
4F#y	.	4c#y	.	8r	.	8r	.
.	.	.	.	(8aL	.	(8cc#yL	.
4r	.	4r	.	8cc#y)	.	8aa)	.
.	.	.	.	8cc#yJ	.	8aaJ	.
=215	=215	=215	=215	=215	=215	=215	=215
4BB	.	4B	.	8r	.	8r	.
.	.	.	.	(8ddL	.	(8ff#yL	.
4r	.	4r	.	8ff#y)	.	8ddd)	.
.	.	.	.	8ff#yJ	.	8dddJ	.
4E	.	4b	.	8r	.	8r	.
.	.	.	.	(8dL	.	(8bL	.
4r	.	4r	.	8dd)	.	8gg#y)	.
.	.	.	.	8ddJ	.	8gg#yJ	.
=216	=216	=216	=216	=216	=216	=216	=216
8AAL	.	4a	.	4cc#y	.	4aa	.
8A	.	.	.	.	.	.	.
8A	.	4r	.	4r	.	4r	.
8AJ	.	.	.	.	.	.	.
8AL	.	2r	.	2r	.	4r	.
8A	.	.	.	.	.	.	.
8A	.	.	.	.	.	(8cc#yL	.
8AJ	.	.	.	.	.	8eeJ	.
=217	=217	=217	=217	=217	=217	=217	=217
8AL	.	2r	.	2r	.	8aaL	.
8A	.	.	.	.	.	8ee	.
8A	.	.	.	.	.	8cc#y	.
8AJ	.	.	.	.	.	8eeJ	.
8AL	.	4r	.	4r	.	4aa)	.
8A	.	.	.	.	.	.	.
8A	.	4cc#y	.	4ee	.	4eee	.
8AJ	.	.	.	.	.	.	.
=218	=218	=218	=218	=218	=218	=218	=218
8AL	.	(2b	.	(2gg#y	.	(2ddd	.
8A	.	.	.	.	.	.	.
8A	.	.	.	.	.	.	.
8AJ	.	.	.	.	.	.	.
8AL	.	4a)	.	4aa)	.	4ccc#y)	.
8A	.	.	.	.	.	.	.
8A	.	4r	.	4r	.	(8cc#yL	.
8AJ	.	.	.	.	.	8eeJ	.
=219	=219	=219	=219	=219	=219	=219	=219
8AL	.	2r	.	2r	.	8aaL	.
8A	.	.	.	.	.	8ee	.
8A	.	.	.	.	.	8cc#y	.
8AJ	.	.	.	.	.	8eeJ	.
8AL	.	4r	.	4r	.	4aa)	.
8A	.	.	.	.	.	.	.
8A	.	4cc#y	.	4ee	.	4eee	.
8AJ	.	.	.	.	.	.	.
=220	=220	=220	=220	=220	=220	=220	=220
8AL	.	(2b	.	(2dd	.	(2gg#y	.
8A	.	.	.	.	.	.	.
8A	.	.	.	.	.	.	.
8AJ	.	.	.	.	.	.	.
8AL	.	4a)	.	4cc#y)	.	4aa)	.
8AA	.	.	.	.	.	.	.
8AA	.	4r	.	(8c#yL	.	4r	.
8AAJ	.	.	.	8eJ	.	.	.
!!LO:LB
=221	=221	=221	=221	=221	=221	=221	=221
8AAL	.	2r	.	8aL	.	4r	.
8AA	.	.	.	8e	.	.	.
8AA	.	.	.	8c#y	.	4ee	.
8AAJ	.	.	.	8eJ	.	.	.
8AAL	.	4r	.	4a)	.	4ee	.
8AA	.	.	.	.	.	.	.
8AA	.	4cc#y	.	4ee	.	4ee	.
8AAJ	.	.	.	.	.	.	.
=222	=222	=222	=222	=222	=222	=222	=222
8AAL	.	(2b	.	(2dd	.	(4.gg#yT	.
8AA	.	.	.	.	.	.	.
8AA	.	.	.	.	.	.	.
8AAJ	.	.	.	.	.	16ff#yL	.
.	.	.	.	.	.	16gg#yJ	.
8AAL	.	4a)	.	4cc#y)	.	4aa)	.
8AA	.	.	.	.	.	.	.
8AA	.	4r	.	(8c#yL	.	4r	.
8AAJ	.	.	.	8eJ	.	.	.
=223	=223	=223	=223	=223	=223	=223	=223
8AAL	.	2r	.	8aL	.	4r	.
8AA	.	.	.	8e	.	.	.
8AA	.	.	.	8c#y	.	(4ee	.
8AAJ	.	.	.	8eJ	.	.	.
8AAL	.	4r	.	4a)	.	4eee)	.
8AA	.	.	.	.	.	.	.
8AA	.	4c#y	.	4ee	.	4eee	.
8AAJ	.	.	.	.	.	.	.
=224	=224	=224	=224	=224	=224	=224	=224
8AAL	.	(2d	.	(2g#y	.	(4.eee	.
8AA	.	.	.	.	.	.	.
8AA	.	.	.	.	.	.	.
8AAJ	.	.	.	.	.	16dddL	.
.	.	.	.	.	.	16bbJ	.
8AAL	.	4c#y)	.	4a)	.	4aa)	.
8AA	.	.	.	.	.	.	.
8AA	.	4e	.	4cc#y	.	4ee	.
8AAJ	.	.	.	.	.	.	.
=225	=225	=225	=225	=225	=225	=225	=225
8AAL	.	(2d	.	(2g#y	.	(4.ee	.
8AA	.	.	.	.	.	.	.
8AA	.	.	.	.	.	.	.
8AAJ	.	.	.	.	.	16ddL	.
.	.	.	.	.	.	16bJ	.
8AAL	.	4c#y)	.	4a)	.	4a)	.
8AA	.	.	.	.	.	.	.
8AA	.	4E	.	4A	.	4c#y	.
8AAJ	.	.	.	.	.	.	.
!!LO:LB
=226	=226	=226	=226	=226	=226	=226	=226
8AAL	.	(2D	.	(2G#y	.	(4.e	.
8AA	.	.	.	.	.	.	.
8AA	.	.	.	.	.	.	.
8AAJ	.	.	.	.	.	16dL	.
.	.	.	.	.	.	16BJ	.
4AA	.	4C#y)	.	4A)	.	4A)	.
4r	.	4A	.	4r	.	4cc#y	.
=227	=227	=227	=227	=227	=227	=227	=227
4r	.	4c#y	.	4r	.	4ee	.
4AA	.	4r	.	4c#y	.	4r	.
4C#y	.	4r	.	4e	.	4r	.
4r	.	4a	.	4r	.	4ccc#y	.
=228	=228	=228	=228	=228	=228	=228	=228
(2A	.	4cc#y	.	(2cc#y	.	4eee	.
.	.	4r	.	.	.	4r	.
4B	.	2r	.	4dd	.	2r	.
4B#)	.	.	.	4dd#)	.	.	.
=229	=229	=229	=229	=229	=229	=229	=229
(2F#y	.	4A	.	(2a	.	4cc#y	.
.	.	4r	.	.	.	4r	.
4E#	.	4r	.	4g#y	.	4r	.
4En)	.	4A#	.	4gn)	.	4cc#y	.
!!LO:LB
=230	=230	=230	=230	=230	=230	=230	=230
4D	.	(8BL	.	2f#y	.	(8ddL	.
.	.	8c	.	.	.	8ee	.
4r	.	8d	.	.	.	8ff#y	.
.	.	8c#yJ	.	.	.	8eeJ	.
4r	.	4B	.	4r	.	4dd	.
4D#	.	4An)	.	4f#y	.	4cc#y)	.
=231	=231	=231	=231	=231	=231	=231	=231
(8EL	.	4G#y	.	(8g#L	.	4b	.
8F#y	.	.	.	8a	.	.	.
8G#y	.	4r	.	8b	.	4r	.
8F#yJ	.	.	.	8aJ	.	.	.
4E	.	2r	.	4g#y	.	2r	.
4Dn)	.	.	.	4f#y)	.	.	.
=232	=232	=232	=232	=232	=232	=232	=232
(1C#y	.	(4G#y	.	8e#L	.	(2cc#y	.
.	.	.	.	8c#y	.	.	.
.	.	4E#	.	8c#y	.	.	.
.	.	.	.	8c#yJ	.	.	.
.	.	4F#y	.	8d#L	.	4b#	.
.	.	.	.	8c#y	.	.	.
.	.	4G#y)	.	8e#y	.	4bn	.
.	.	.	.	8c#yJ	.	.	.
=233	=233	=233	=233	=233	=233	=233	=233
4FF#y)	.	4A	.	8f#yL	.	4a	.
.	.	.	.	8a	.	.	.
4r	.	4r	.	8f#y	.	4dd	.
.	.	.	.	8dJ	.	.	.
4r	.	2r	.	8gnL	.	4cc#y	.
.	.	.	.	8e	.	.	.
(4D#	.	.	.	8a	.	4ccn	.
.	.	.	.	8f#yJ	.	.	.
=234	=234	=234	=234	=234	=234	=234	=234
4E)	.	4r	.	8aL	.	4b	.
.	.	.	.	8e	.	.	.
4r	.	4e	.	8g#	.	4ee	.
.	.	.	.	8eJ	.	.	.
4r	.	4e	.	8f#yL	.	4dd#	.
.	.	.	.	8a	.	.	.
4E	.	4e	.	8g#y	.	4ddn	.
.	.	.	.	8bJ	.	.	.
=235	=235	=235	=235	=235	=235	=235	=235
4AA	.	(2e	.	4a	.	8cc#L)	.
.	.	.	.	.	.	8ee	.
4r	.	.	.	4r	.	8ee	.
.	.	.	.	.	.	8eeJ	.
2r	.	4d#	.	2r	.	8ff#yL	.
.	.	.	.	.	.	8ee	.
.	.	4dn)	.	.	.	8gg#y	.
.	.	.	.	.	.	8eeJ	.
=236	=236	=236	=236	=236	=236	=236	=236
1r	.	8c#yL	.	(2ee	.	4aa	.
.	.	8e	.	.	.	.	.
.	.	8e	.	.	.	4r	.
.	.	8eJ	.	.	.	.	.
.	.	8f#yL	.	4dd#	.	2r	.
.	.	8e	.	.	.	.	.
.	.	8g#y	.	4ddn)	.	.	.
.	.	8eJ	.	.	.	.	.
=237	=237	=237	=237	=237	=237	=237	=237
(2F#y	.	(2a	.	8cc#yL	.	1r	.
.	.	.	.	8a	.	.	.
.	.	.	.	8a	.	.	.
.	.	.	.	8aJ	.	.	.
4E#	.	4g#y	.	8bL	.	.	.
.	.	.	.	8a	.	.	.
4En)	.	4gn)	.	8cc#y	.	.	.
.	.	.	.	8aJ	.	.	.
=238	=238	=238	=238	=238	=238	=238	=238
8DL	.	(8f#yL	.	(8ddL	.	1r	.
8BB	.	8e	.	8ee	.	.	.
8BB	.	8d	.	8ff#y	.	.	.
8BBJ	.	8c#yJ	.	8eeJ	.	.	.
8C#yL	.	4B	.	4dd	.	.	.
8BB	.	.	.	.	.	.	.
8D	.	4A)	.	4cc#y)	.	.	.
8BBJ	.	.	.	.	.	.	.
=239	=239	=239	=239	=239	=239	=239	=239
4E	.	4G	.	4b	.	8r	.
.	.	.	.	.	.	8gg#yL	.
4r	.	4r	.	4r	.	8gg#y	.
.	.	.	.	.	.	8gg#yJ	.
2r	.	2r	.	2r	.	8aaL	.
.	.	.	.	.	.	8gg#y	.
.	.	.	.	.	.	8bb	.
.	.	.	.	.	.	8gg#yJ	.
=240	=240	=240	=240	=240	=240	=240	=240
8r	.	(2e#	.	(>2cc#y	.	(2ccc#y	.
8C#yL	.	.	.	.	.	.	.
8C#y	.	.	.	.	.	.	.
8C#yJ	.	.	.	.	.	.	.
8D#L	.	4f#y	.	4b#	.	4bb#	.
8C#y	.	.	.	.	.	.	.
8E#	.	4g#y)	.	4bn	.	4bbn	.
8C#yJ	.	.	.	.	.	.	.
=241	=241	=241	=241	=241	=241	=241	=241
4F#y	.	8aL	.	4a	.	4aa	.
.	.	8gn	.	.	.	.	.
4r	.	8f#y	.	4dd	.	4ddd	.
.	.	8dJ	.	.	.	.	.
4r	.	8gL	.	4cc#y	.	4ccc#y	.
.	.	8e	.	.	.	.	.
(4D#	.	8a	.	4ccn	.	4cccn	.
.	.	8f#yJ	.	.	.	.	.
!!LO:LB
=242	=242	=242	=242	=242	=242	=242	=242
8EL)	.	(2g#	.	4b	.	4bb	.
8E	.	.	.	.	.	.	.
8E	.	.	.	4ee	.	4eee	.
8EJ	.	.	.	.	.	.	.
8F#yL	.	4a	.	4dd#	.	4ddd#	.
8E	.	.	.	.	.	.	.
8G#y	.	4b)	.	4ddn	.	4dddn	.
8EJ	.	.	.	.	.	.	.
=243	=243	=243	=243	=243	=243	=243	=243
(2A	.	8eL	.	8cc#L)	.	8ccc#L)	.
.	.	8c#y	.	8A	.	8a	.
.	.	8c#y	.	8A	.	8a	.
.	.	8c#yJ	.	8AJ	.	8aJ	.
4G#y	.	(4d	.	8BL	.	8bL	.
.	.	.	.	8A	.	8a	.
4Gn	.	4e)	.	8c#y	.	8cc#y	.
.	.	.	.	8AJ	.	8aJ	.
=244	=244	=244	=244	=244	=244	=244	=244
4F#y	.	8f#yL	.	8dL	.	8ddL	.
.	.	8d	.	8f#y	.	8ff#y	.
4B	.	8f#y	.	8d	.	8dd	.
.	.	8dJ	.	8BJ	.	8bJ	.
4A#	.	(4e	.	8c#yL	.	8cc#yL	.
.	.	.	.	8B	.	8b	.
4An	.	4f#y)	.	8d#	.	8dd#	.
.	.	.	.	8BJ	.	8bJ	.
=245	=245	=245	=245	=245	=245	=245	=245
4G#y	.	8g#yL	.	8eL	.	8eeL	.
.	.	8e	.	8b	.	8bb	.
4e	.	8b	.	8g#y	.	8gg#y	.
.	.	8g#yJ	.	8eJ	.	8eeJ	.
4d#	.	(4a	.	8f#yL	.	8ff#yL	.
.	.	.	.	8e	.	8ee	.
4dn)	.	4b)	.	8g#y	.	8gg#y	.
.	.	.	.	8eJ	.	8eeJ	.
=246	=246	=246	=246	=246	=246	=246	=246
4c#y	.	4cc#y	.	8aL	.	8aaL	.
.	.	.	.	8e	.	8ee	.
4c#y	.	4e	.	8a	.	8aa	.
.	.	.	.	8eeJ	.	8eeJ	.
4B	.	4d	.	8gg#yL	.	8bbL	.
.	.	.	.	8ee	.	8ee	.
4A	.	4c#y	.	8aa	.	8ccc#y	.
.	.	.	.	8eeJ	.	8eeJ	.
=247	=247	=247	=247	=247	=247	=247	=247
4G#y	.	4e	.	4bb	.	4ddd	.
4r	.	4r	.	4r	.	4r	.
2r	.	2r	.	2r	.	2r	.
!!LO:LB
=248	=248	=248	=248	=248	=248	=248	=248
2r	.	2r	.	2r	.	(2ee	.
4r	.	4r	.	4r	.	4dd#	.
(4e#	.	(4g#y	.	(4b	.	4ddn)	.
=249	=249	=249	=249	=249	=249	=249	=249
4f#y)	.	4a)	.	4a)	.	4cc#y	.
4r	.	4r	.	4r	.	4r	.
4d	.	4a	.	4ff#y	.	2r	.
4r	.	4r	.	4r	.	.	.
=250	=250	=250	=250	=250	=250	=250	=250
(1en	.	(2a	.	(2.b	.	8r	.
.	.	.	.	.	.	8eeeL	.
.	.	.	.	.	.	8eee	.
.	.	.	.	.	.	8eeeJ	.
.	.	2g#y)	.	.	.	8eeeL	.
.	.	.	.	.	.	8ddd	.
.	.	.	.	8cc#yL	.	8ccc#y	.
.	.	.	.	8ddJ)	.	8bbJ	.
=251	=251	=251	=251	=251	=251	=251	=251
4A)	.	4a	.	4cc#y	.	4aa	.
4r	.	4r	.	4r	.	4r	.
2r	.	2r	.	2r	.	2r	.
=252	=252	=252	=252	=252	=252	=252	=252
2r	.	2r	.	2r	.	(2e	.
4r	.	4r	.	4r	.	4d#	.
(4E#	.	(4G#y	.	(4B	.	4dn)	.
=253	=253	=253	=253	=253	=253	=253	=253
4F#y)	.	4A)	.	4A)	.	4c#y	.
4r	.	4r	.	4r	.	4r	.
4D#	.	4A	.	4f#y	.	2r	.
4r	.	4r	.	4r	.	.	.
=254	=254	=254	=254	=254	=254	=254	=254
4En	.	4A	.	4B	.	8r	.
.	.	.	.	.	.	8eeL	.
4r	.	4r	.	4r	.	8ee	.
.	.	.	.	.	.	8eeJ	.
4EE	.	4G#y	.	4e	.	8eeL	.
.	.	.	.	.	.	8dd	.
4r	.	4r	.	4r	.	8cc#y	.
.	.	.	.	.	.	8bJ	.
!!LO:LB
=255	=255	=255	=255	=255	=255	=255	=255
4AA	.	4A	.	4c#y	.	4a	.
4r	.	4r	.	4r	.	4r	.
2r	.	2r	.	2r	.	2r	.
=256	=256	=256	=256	=256	=256	=256	=256
1r	.	8r	.	(2cc#y	.	(2ee	.
.	.	8eL	.	.	.	.	.
.	.	8e	.	.	.	.	.
.	.	8eJ	.	.	.	.	.
.	.	8f#yL	.	4ccn	.	4dd#	.
.	.	8e	.	.	.	.	.
.	.	8g#y	.	4b)	.	4ddn)	.
.	.	8eJ	.	.	.	.	.
=257	=257	=257	=257	=257	=257	=257	=257
1r	.	4a	.	4a	.	4cc#y	.
.	.	4r	.	4r	.	4r	.
.	.	2r	.	2r	.	2r	.
=258	=258	=258	=258	=258	=258	=258	=258
8r	.	1r	.	(2e	.	(2cc#y	.
8EEL	.	.	.	.	.	.	.
8EE	.	.	.	.	.	.	.
8EEJ	.	.	.	.	.	.	.
8FF#yL	.	.	.	4d#	.	4ccn	.
8EE	.	.	.	.	.	.	.
8GG#y	.	.	.	4dn)	.	4b)	.
8EEJ	.	.	.	.	.	.	.
=259	=259	=259	=259	=259	=259	=259	=259
4AA	.	1r	.	4c#y	.	4a	.
4r	.	.	.	4r	.	4r	.
2r	.	.	.	2r	.	2r	.
=260	=260	=260	=260	=260	=260	=260	=260
(1E	.	(2c#y	.	(2e	.	8r	.
.	.	.	.	.	.	8eeL	.
.	.	.	.	.	.	8ee	.
.	.	.	.	.	.	8eeJ	.
.	.	4cn	.	4d#	.	8ff#yL	.
.	.	.	.	.	.	8ee	.
.	.	4B)	.	4dn)	.	8gg#y	.
.	.	.	.	.	.	8eeJ	.
=261	=261	=261	=261	=261	=261	=261	=261
4AA)	.	4A	.	4c#y	.	4aa	.
4r	.	4r	.	4r	.	4r	.
2r	.	2r	.	2r	.	2r	.
==	==	==	==	==	==	==	==
*-	*-	*-	*-	*-	*-	*-	*-
!!!RDF**kern: > = above
!!!RDF**kern: < = below
